!!!!SEGMENT: pl-kk--kk-i-31--003_anonim--missa-patrem.krn
!!!cenid: 17xx:2233
!!!COM: Anonim
!!!COM-rismid: pe30004985
!!!CDT:
!!!CNT:
!!!OPR: Missa
!!!OTL: Patrem
!!!OMV: 003
!!!PDT:
!!!AGN: Sacred; Mass
!!!SMS-siglum: PL-Kk
!!!SMS-shelfmark: Kk.I.31
!!!SMS-shelfwork: 001-003 M
!!!SMS-variant:
!!!SMS-altvar:
!!!NIFC-rismid: 1001156550
!!!URL-scan: http://repozytorium.nifc.pl/skany/pl-kk-nut--i-31
!!!ONB-nifc: UWAGA: części Mszy: 1. Kyrie, 2. Et in terra, 3. Patrem, 4. Sanctus, 5. Agnus Dei
**kern	**text	**kern	**text	**text	**kern	**text	**kern	**text	**text	**kern	**text
*part5	*part5	*part4	*part4	*part4	*part3	*part3	*part2	*part2	*part2	*part1	*part1
*staff5	*staff5	*staff4	*staff4	*staff4	*staff3	*staff3	*staff2	*staff2	*staff2	*staff1	*staff1
*Iempty	*	*Iempty	*	*	*Itenor	*	*Ialto	*	*	*Ivox	*
*I"Baſso Ripieno.	*	*I"Baſso.	*	*	*I"Tenore	*	*I"Alto	*	*	*I"Canto	*
*I'B rip	*	*I'B	*	*	*I'T	*	*I'A	*	*	*I'S	*
*clefF4	*	*clefF4	*	*	*clefC4	*	*clefC3	*	*	*clefC1	*
*k[]	*	*k[]	*	*	*k[]	*	*k[]	*	*	*k[]	*
*C:	*	*C:	*	*	*C:	*	*C:	*	*	*C:	*
*M2/1	*	*M2/1	*	*	*M2/1	*	*M2/1	*	*	*M2/1	*
*met(C)	*	*met(C)	*	*	*met(C)	*	*met(C)	*	*	*met(C)	*
*	*	*all\right	*	*	*all\right	*	*all\right	*	*	*all\right	*
=1-	=1-	=1-	=1-	=1-	=1-	=1-	=1-	=1-	=1-	=1-	=1-
!	!	!	!	!	!	!	!	!	!	!LO:TX:t=P:problem:kreska pseudotaktowa	!
!LO:TX:t=P:problem:kreska pseudotaktowa	!	!	!	!	!	!	!	!	!	!LO:TX:t=P:problem:oddech/cezura na różnej wysokości:global	!
!LO:TX:a:t=Tutti	!	!LO:TX:t=P:problem:kreska pseudotaktowa	!	!	!LO:TX:t=P:problem:kreska pseudotaktowa	!	!	!	!	!LO:TX:t=P:problem:uwzględniono teksty dopisane inną ręką [konsultacja E.Z.]	!
1r	.	1r	.	.	1r	.	4c\	Pa-	.	0r	.
.	.	.	.	.	.	.	8c\	-trem	.	.	.
.	.	.	.	.	.	.	8c\	o-	.	.	.
.	.	.	.	.	.	.	4d\	-mni-	.	.	.
!	!	!	!	!	!	!	!LO:TX:t=P:problem:kreska pseudotaktowa	!	!	!	!
.	.	.	.	.	.	.	4d\	-po-	.	.	.
4C/	Pa-	4C/	Pa-	.	8r	.	4e\	-ten-	.	.	.
.	.	.	.	.	8c\	Fa-	.	.	.	.	.
8C,</	-trem	8C/	-trem	.	8c\	-cto-	8e\	-tem	.	.	.
8C/	O-	8C/	o-	.	8B\	-rem	8e\	fa-	.	.	.
4D\	-mni-	4D\	-mni-	.	(8A\L	Cae-	4f\	-cto-	.	.	.
.	.	.	.	.	16B\L	.	.	.	.	.	.
.	.	.	.	.	16c\JJ)	.	.	.	.	.	.
!LO:TX:t=P:problem:kreska pseudotaktowa	!	!LO:TX:t=P:problem:kreska pseudotaktowa	!	!	!LO:TX:t=P:problem:kreska pseudotaktowa	!	!LO:TX:t=P:problem:kreska pseudotaktowa	!	!	!	!
4D\	-po-	4D\	-po-	.	4d\	.	4f\	-rem	.	.	.
=2-	=2-	=2-	=2-	=2-	=2-	=2-	=2-	=2-	=2-	=2-	=2-
*	*	*	*	*	*	*	*2\right	*	*	*	*
4E\	-ten-	4E\	-ten-	.	8c,<\	-li	2g\	Cae-	.	8r	.
.	.	.	.	.	8e\	fa-	.	.	.	8cc\	Fa-
8E,<\	-tem	8E\	-tem	.	8e\	-cto-	.	.	.	8cc\	-cto-
8E\	Fa-	8E\	fa-	.	8d\	-rem	.	.	.	8b\	-rem
!	!	!LO:LB:g=original	!	!	!LO:LB:g=original	!	!LO:TX:t=P:problem:kreska pseudotaktowa	!	!	!	!
4F\	-cto-	4F\	-cto-	.	8c\L	Cae-	2a\	-li	.	8a\L	Cae-
.	.	.	.	.	16d\L	.	.	.	.	16b\L	.
.	.	.	.	.	16e\JJ	.	.	.	.	16cc\JJ	.
!LO:TX:t=P:problem:kreska pseudotaktowa	!	!LO:TX:t=P:problem:kreska pseudotaktowa	!	!	!LO:TX:t=P:problem:kreska pseudotaktowa	!	!	!	!	!LO:TX:t=P:problem:kreska pseudotaktowa	!
4F\	-rem	4F\	-rem	.	4f\	.	.	.	.	4dd\	.
*2\right	*	*2\right	*	*	*	*	*	*	*	*	*
2G\	Cae-	2G\	Cae-	.	8d\	-li	2g\	et	.	4.b\	-li
.	.	.	.	.	8d\	et	.	.	.	.	.
*	*	*	*	*	*2\right	*	*	*	*	*	*
.	.	.	.	.	2d\	ter-	.	.	.	.	.
.	.	.	.	.	.	.	.	.	.	8b\	et
*	*	*	*	*	*	*	*	*	*	*2\right	*
!LO:TX:t=P:problem:kreska pseudotaktowa	!	!LO:TX:t=P:problem:kreska pseudotaktowa	!	!	!	!	!LO:TX:t=P:problem:kreska pseudotaktowa	!	!	!LO:TX:t=P:problem:kreska pseudotaktowa	!
2A\	-li	2A\	-li,	.	.	.	2e\	ter-	.	2a\	ter-
!	!	!	!	!	!LO:TX:t=P:problem:kreska pseudotaktowa	!	!	!	!	!	!
.	.	.	.	.	4c#X\	.	.	.	.	.	.
=3-	=3-	=3-	=3-	=3-	=3-	=3-	=3-	=3-	=3-	=3-	=3-
!	!	!	!	!	!	!	!	!	!	!LO:TX:t=P:problem:kreska pseudotaktowa	!
2r	.	2r	.	.	4d,<\	-rae	2f\	-rae	.	1a	-rae
.	.	.	.	.	4d\	fa-	.	.	.	.	.
4r	.	4r	.	.	4cny\	-cto-	8r	.	.	.	.
.	.	.	.	.	.	.	8e\	fa-	.	.	.
!LO:TX:t=P:problem:kreska pseudotaktowa	!	!LO:TX:t=P:problem:kreska pseudotaktowa	!	!	!LO:TX:t=P:problem:kreska pseudotaktowa	!	!	!	!	!	!
4A\	Fa-	4A\	Fa-	.	4c\	-rem	8e\	-cto-	.	.	.
!	!	!	!	!	!	!	!LO:TX:t=P:problem:kreska pseudotaktowa	!	!	!	!
.	.	.	.	.	.	.	8f\	-rem	.	.	.
!	!	!	!	!	!	!	!LO:LB:g=original	!	!	!	!
4G\	-cto-	4G\	-cto-	.	4B\	Cae-	8g\L	Cae-	.	8r	.
.	.	.	.	.	.	.	16f\L	.	.	8b\	fa-
.	.	.	.	.	.	.	16e\JJ	.	.	.	.
4G\	-rem	4G,<\	-rem	.	8B\	-li	4d\	-li	.	8b\	-cto-
.	.	.	.	.	8B\	et	.	.	.	8cc\	-rem
!	!	!	!	!	!LO:TX:t=P:problem:kreska pseudotaktowa	!	!	!	!	!	!
4F\	cae-	4F\	Cae-	.	2A/	ter-	8f\	.	.	8dd\L	Cae-
.	.	.	.	.	.	.	8c\	fa-	.	16cc\L	.
.	.	.	.	.	.	.	.	.	.	16b\JJ	.
!	!	!	!	!	!	!	!	!	!	!LO:TX:t=P:problem:kreska pseudotaktowa	!
8F\	-li	8F,<\	-li	.	.	.	8c\	-cto-	.	4a\	.
!LO:TX:t=P:problem:kreska pseudotaktowa	!	!LO:TX:t=P:problem:kreska pseudotaktowa	!	!	!	!	!LO:TX:t=P:problem:kreska pseudotaktowa	!	!	!	!
8F\	et	8F\	et	.	.	.	8d\	-rem	.	.	.
=4-	=4-	=4-	=4-	=4-	=4-	=4-	=4-	=4-	=4-	=4-	=4-
(2E\	ter-	(<2E\	ter-	.	4G,</	-rae	8e\L	Cae-	.	4cc\	-li
.	.	.	.	.	.	.	16d\L	.	.	.	.
.	.	.	.	.	.	.	16c\JJ	.	.	.	.
.	.	.	.	.	4G/	et	4B/	.	.	4e/	et
!LO:TX:t=P:problem:kreska pseudotaktowa	!	!LO:TX:t=P:problem:kreska pseudotaktowa	!	!	!	!	!	!	!	!LO:TX:t=P:problem:kreska pseudotaktowa	!
2D/)	.	2D/)	.	.	4A\	ter-	4d\	-li	.	2f/	ter-
!	!	!	!	!	!LO:TX:t=P:problem:kreska pseudotaktowa	!	!LO:TX:t=P:problem:kreska pseudotaktowa	!	!	!	!
.	.	.	.	.	4B\	.	4d\	et	.	.	.
4C,</	-rae	4C,</	-rae	.	8c\L	.	2g\	ter-	.	4e/	-rae
.	.	.	.	.	8G\J	.	.	.	.	.	.
8C/	vi-	8C/	Vi-	.	2c\	.	.	.	.	8ee\	Vi-
8C/	-si-	8C/	-ſi-	.	.	.	.	.	.	8ee\	-ſi-
4GG/	-bi-	4GG/	-bi-	.	.	.	4g\	-rae	.	4dd\	-bi-
!	!	!	!	!	!LO:TX:t=P:problem:kreska pseudotaktowa	!	!	!	!	!	!
8GG/	-li-	8GG/	-li-	.	4B\	.	8g\	Vi-	.	8dd\	-li-
!LO:TX:t=P:problem:kreska pseudotaktowa	!	!LO:TX:t=P:problem:kreska pseudotaktowa	!	!	!	!	!LO:TX:t=P:problem:kreska pseudotaktowa	!	!	!LO:TX:t=P:problem:kreska pseudotaktowa	!
8GG/	-um	8GG/	-um	.	.	.	8g\	-ſi-	.	8dd\	-um
!LO:LB:g=original	!	!	!	!	!	!	!	!	!	!LO:LB:g=original	!
=5-	=5-	=5-	=5-	=5-	=5-	=5-	=5-	=5-	=5-	=5-	=5-
4.AA/	o-	4AA/	o-	.	2c\	-rae	4e\	-bi-	.	4.cc\	O-
.	.	4AA/	-mni-	.	.	.	8e\	-li-	.	.	.
8AA/	-(mn)i-	.	.	.	.	.	8e\	-um	.	8cc\	-mni-
!	!	!	!	!	!LO:TX:t=P:problem:kreska pseudotaktowa	!	!	!	!	!	!
4BB,</	-um	4BB,</	-um	.	2r	.	4d\	O-	.	4b\	-um
!	!	!	!	!	!	!	!LO:TX:t=P:problem:kreska pseudotaktowa	!	!	!LO:TX:t=P:problem:kreska pseudotaktowa:między nutą a kropką	!
8BB/	et	8BB/	et	.	.	.	4d\	-mni-	.	4.b\	et
!LO:TX:t=P:problem:kreska pseudotaktowa	!	!LO:TX:t=P:problem:kreska pseudotaktowa	!	!	!	!	!	!	!	!	!
8BB/	in-	8BB/	in-	.	.	.	.	.	.	.	.
4C/	-vi-	4C/	-vi-	.	1r	.	4e\	-um	.	.	.
.	.	.	.	.	.	.	.	.	.	8a\	in-
4C/	-si-	4C/	-ſi-	.	.	.	8e\	et	.	4.a\	-vi-
.	.	.	.	.	.	.	8e\	in-	.	.	.
4.D\	-bi-	4D/	-bi-	.	.	.	4f\	-vi-	.	.	.
.	.	.	.	.	.	.	.	.	.	8a\	-ſi-
!	!	!LO:TX:t=P:problem:kreska pseudotaktowa	!	!	!	!	!LO:TX:t=P:problem:kreska pseudotaktowa	!	!	!LO:TX:t=P:problem:kreska pseudotaktowa:między nutą a kropką	!
.	.	4D/	-li-	.	.	.	4f\	-ſi-	.	4.b\	-bi-
!LO:TX:t=P:problem:kreska pseudotaktowa	!	!	!	!	!	!	!	!	!	!	!
8D\	-li-	.	.	.	.	.	.	.	.	.	.
!	!	!LO:LB:g=original	!	!	!	!	!	!	!	!	!
=6-	=6-	=6-	=6-	=6-	=6-	=6-	=6-	=6-	=6-	=6-	=6-
4E,<\	-um	4E,<\	-um	.	2r	.	4g\	-bi-	.	.	.
.	.	.	.	.	.	.	.	.	.	8g/	.
8E\	Et	8E\	et	.	.	.	4g\	-li-	.	2cc\	-li-
8F\	in	8F\	in	.	.	.	.	.	.	.	.
4.G\	u-	4.G\	V-	.	4r	.	4.d\	-um	.	.	.
!	!	!	!	!	!	!	!	!	!	!LO:TX:t=P:problem:kreska pseudotaktowa	!
.	.	.	.	.	8B\	et	.	.	.	4b\	.
!LO:TX:t=P:problem:kreska pseudotaktowa	!	!LO:TX:t=P:problem:kreska pseudotaktowa	!	!	!LO:TX:t=P:problem:kreska pseudotaktowa	!	!LO:TX:t=P:problem:kreska pseudotaktowa	!	!	!	!
8G\	-num	8G\	-num	.	8c\	in	8e\	.	.	.	.
4.D/	D(o-	4.D\	Do-	.	4.d\	V-	4f,<\	.	.	4a\	-um
.	.	.	.	.	.	.	8f\	et	.	8a\	et
8D/	-mi)-	8D\	-mi-	.	8d\	-num	8g\	in	.	8b\	in
!LO:TX:t=P:problem:kreska pseudotaktowa	!	!LO:TX:t=P:problem:kreska pseudotaktowa	!	!	!	!	!	!	!	!	!
2A\	-num	2A\	-num	.	4.e\	Do-	4.a\	V-	.	4.cc\	V-
!	!	!	!	!	!LO:TX:t=P:problem:kreska pseudotaktowa	!	!LO:TX:t=P:problem:kreska pseudotaktowa	!	!	!LO:TX:t=P:problem:kreska pseudotaktowa	!
.	.	.	.	.	8e\	-mi-	8a\	-num	.	8cc\	-num
!	!	!	!	!	!	!	!LO:LB:g=original	!	!	!	!
=7-	=7-	=7-	=7-	=7-	=7-	=7-	=7-	=7-	=7-	=7-	=7-
(4.E\	JE-	(4.E\	Je-	.	2e\	-num	4.g\	Do-	.	4.b\	Do-
8F\)	.	8F\	.	.	.	.	8g\	-mi-	.	8b\	-mi-
!	!	!	!	!	!LO:LB:g=original	!	!LO:TX:t=P:problem:kreska pseudotaktowa	!	!	!LO:TX:t=P:problem:kreska pseudotaktowa	!
4G\	-sum	4G\)	.	.	4d\	Je-	2g\	-num	.	2b\	-num
!LO:TX:t=P:problem:kreska pseudotaktowa	!	!LO:TX:t=P:problem:kreska pseudotaktowa	!	!	!LO:TX:t=P:problem:kreska pseudotaktowa	!	!	!	!	!	!
4E\	.	4E\	-ſum	.	4e\	.	.	.	.	.	.
(8F\L	Chri-	(8F\L	Chri-	.	2.c\	-ſum	2f\	Je-	.	2a\	Je-
8G\	.	8G\	.	.	.	.	.	.	.	.	.
8A\	.	8A\	.	.	.	.	.	.	.	.	.
8B\J)	.	8B\J)	.	.	.	.	.	.	.	.	.
4c\	.	4c\	.	.	.	.	4e\	-ſum	.	4g\	-ſum
!LO:TX:t=P:problem:kreska pseudotaktowa	!	!LO:TX:t=P:problem:kreska pseudotaktowa	!	!	!	!	!LO:TX:t=P:problem:kreska pseudotaktowa	!	!	!LO:TX:t=P:problem:kreska pseudotaktowa	!
4F\	.	4F\	.	.	2c\	Chri-	4f\	Chri-	.	4a\	.
=8-	=8-	=8-	=8-	=8-	=8-	=8-	=8-	=8-	=8-	=8-	=8-
2G\	.	2G\	.	.	.	.	2d\	.	.	2g/	Chri-
.	.	.	.	.	4B\	-ſtum	.	.	.	.	.
!LO:TX:t=P:problem:kreska pseudotaktowa	!	!LO:TX:t=P:problem:kreska pseudotaktowa	!	!	!	!	!	!	!	!	!
2C/	-stum	2C/	-stum.	.	4c\	.	4e\	-ſtum	.	4g/	-ſtum
.	.	.	.	.	2c\	Fi-	2e\	Fi-	.	2g/	Fi-
0r	.	0r	.	.	.	.	.	.	.	.	.
.	.	.	.	.	8B\	-li-	8d\	-li-	.	8g/	-li-
.	.	.	.	.	8B\	-um	8d\	-um	.	8g/	-um
!	!	!	!	!	!	!	!	!	!	!LO:TX:t=P:problem:kreska pseudotaktowa	!
.	.	.	.	.	8c\	DE-	8e\	DE-	.	2a\	DE-
.	.	.	.	.	8c\	-i	8e\	-i	.	.	.
.	.	.	.	.	8d\	V-	8f#X\	V-	.	.	.
!	!	!	!	!	!LO:TX:t=P:problem:kreska pseudotaktowa	!	!LO:TX:t=P:problem:kreska pseudotaktowa	!	!	!	!
.	.	.	.	.	8d\	-ni-	8f#\	-ni-	.	.	.
=9-	=9-	=9-	=9-	=9-	=9-	=9-	=9-	=9-	=9-	=9-	=9-
.	.	.	.	.	8G/L	-ge-	2g\	-ge-	.	2b\	-i
.	.	.	.	.	8A/	.	.	.	.	.	.
.	.	.	.	.	8B/	.	.	.	.	.	.
.	.	.	.	.	8G/J	.	.	.	.	.	.
!	!	!	!	!	!	!	!	!	!	!LO:LB:g=original	!
.	.	.	.	.	8A\L	.	4fny\	.	.	4cc\	V-
.	.	.	.	.	8B\J	.	.	.	.	.	.
!	!	!	!	!	!	!	!LO:TX:t=P:problem:kreska pseudotaktowa	!	!	!LO:TX:t=P:problem:kreska pseudotaktowa	!
.	.	.	.	.	2c\	.	4e\	.	.	4cc\	-ni-
2r	.	2r	.	.	.	.	2.g\	-ni-	.	4dd\	-ge-
.	.	.	.	.	4B\	.	.	.	.	4dd\	-ni-
4r	.	4r	.	.	4.c\	-ni-	.	.	.	4ee\	-tum
!	!	!	!	!	!	!	!LO:TX:t=P:problem:kreska pseudotaktowa	!	!	!	!
8C/	Et	8C/	et	.	.	.	4g\	-tum	.	8ee\	et
!LO:TX:t=P:problem:kreska pseudotaktowa	!	!LO:TX:t=P:problem:kreska pseudotaktowa	!	!	!LO:TX:t=P:problem:kreska pseudotaktowa	!	!	!	!	!LO:TX:t=P:problem:kreska pseudotaktowa	!
8C/	ex	8C/	ex	.	8B\	.	.	.	.	8ee\	ex
!LO:LB:g=original	!	!	!	!	!	!	!	!	!	!	!
=10-	=10-	=10-	=10-	=10-	=10-	=10-	=10-	=10-	=10-	=10-	=10-
4D\	P(a-	4D\	Pa-	.	2A/	-tum	4f\	.	.	4dd\	Pa-
4D\	-t)re	4D\	-tre	.	.	.	8f\	et	.	4dd\	-tre
.	.	.	.	.	.	.	8f\	ex	.	.	.
!	!	!	!	!	!	!	!	!	!	!LO:TX:t=P:problem:kreska pseudotaktowa	!
4E\	na-	4E\	na-	.	4r	.	4g\	Pa-	.	2cc\	Na-
!LO:TX:t=P:problem:kreska pseudotaktowa	!	!LO:TX:t=P:problem:kreska pseudotaktowa	!	!	!	!	!LO:TX:t=P:problem:kreska pseudotaktowa	!	!	!	!
4E\	-tum	4E\	-tum	.	8G/	et	4g\	-tre	.	.	.
!	!	!	!	!	!LO:TX:t=P:problem:kreska pseudotaktowa	!	!	!	!	!	!
.	.	.	.	.	8G/	ex	.	.	.	.	.
4F\	an-	4F\	an-	.	4A\	Pa-	2f\	Na-	.	2cc\	-tum
4F\	-te	4F\	-te	.	4A\	-tre	.	.	.	.	.
4G\	o-	4G\	o-	.	4B\	Na-	4d\	-tum	.	4b\	an-
!	!	!	!	!	!LO:TX:t=P:problem:kreska pseudotaktowa	!	!	!	!	!LO:TX:t=P:problem:kreska pseudotaktowa	!
8G\	-mni-	8G\	-mni-	.	4B\	-tum	8e\	an-	.	4b\	-te
!LO:TX:t=P:problem:kreska pseudotaktowa	!	!LO:TX:t=P:problem:kreska pseudotaktowa	!	!	!	!	!LO:TX:t=P:problem:kreska pseudotaktowa	!	!	!	!
8G\	-a	8G\	-a	.	.	.	8e\	-te	.	.	.
!	!	!LO:LB:g=original	!	!	!	!	!	!	!	!	!
=11-	=11-	=11-	=11-	=11-	=11-	=11-	=11-	=11-	=11-	=11-	=11-
4.A\	sae-	(4.A\	Sae-	.	4c\	an-	2e\	o-	.	8a\	o-
.	.	.	.	.	.	.	.	.	.	8b\	.
.	.	.	.	.	4c\	-te	.	.	.	2cc\	-mni-
(8G\	.	8G\)	.	.	.	.	.	.	.	.	.
!	!	!	!	!	!LO:LB:g=original	!	!	!	!	!	!
4F\	.	4F\	.	.	4d\	o-	4a\	-mni-	.	.	.
!LO:TX:t=P:problem:kreska pseudotaktowa	!	!LO:TX:t=P:problem:kreska pseudotaktowa	!	!	!	!	!LO:TX:t=P:problem:kreska pseudotaktowa	!	!	!LO:TX:t=P:problem:kreska pseudotaktowa	!
4G\)	.	4G\	.	.	8d\	-mni-	4g\	-a	.	4b\	-a
!	!	!	!	!	!LO:TX:t=P:problem:kreska pseudotaktowa	!	!	!	!	!	!
.	.	.	.	.	8d\	-a	.	.	.	.	.
!	!	!	!	!	!	!	!LO:LB:g=original	!	!	!	!
2C/	.	2C/	.	.	2e\	ſae-	8g\	ſae-	.	2cc\	ſae-
.	.	.	.	.	.	.	8e\	.	.	.	.
.	.	.	.	.	.	.	2g\	.	.	.	.
4.D\	.	4.D/	.	.	4.d\	-cu-	.	.	.	4.a\	.
!	!	!	!	!	!	!	!LO:TX:t=P:problem:kreska pseudotaktowa	!	!	!	!
.	.	.	.	.	.	.	4f#X\	-cu-	.	.	.
!LO:TX:t=P:problem:kreska pseudotaktowa	!	!LO:TX:t=P:problem:kreska pseudotaktowa	!	!	!LO:TX:t=P:problem:kreska pseudotaktowa	!	!	!	!	!LO:TX:t=P:problem:kreska pseudotaktowa	!
8D\	-cu-	8D/	-cu-	.	8d\	-la	.	.	.	8a\	-cu-
=12-	=12-	=12-	=12-	=12-	=12-	=12-	=12-	=12-	=12-	=12-	=12-
!LO:TX:t=P:problem:kreska pseudotaktowa	!	!	!	!	!	!	!	!	!	!LO:TX:t=P:problem:kreska pseudotaktowa	!
1GG	-la	1GG	-la	.	4d\	DE-	2g\	-la	.	1b	-la
.	.	.	.	.	4d\	-um	.	.	.	.	.
.	.	.	.	.	4B\	.	4r	.	.	.	.
!	!	!	!	!	!LO:TX:t=P:problem:kreska pseudotaktowa	!	!LO:TX:t=P:problem:kreska pseudotaktowa	!	!	!	!
.	.	.	.	.	4G/	de	4d\	DE-	.	.	.
!	!	!	!	!	!	!	!	!	!	!LO:TX:t=P:problem:kreska pseudotaktowa	!
4r	.	4r	.	.	2d\	DE-	4B/	-um	.	1r	.
4G\	De-	4G\	DE-	.	.	.	4G/	de	.	.	.
!	!	!	!	!	!LO:TX:t=P:problem:kreska pseudotaktowa	!	!	!	!	!	!
4E\	-um	4E\	-um	.	2e\	-o	4B/	DE-	.	.	.
!LO:TX:t=P:problem:kreska pseudotaktowa	!	!LO:TX:t=P:problem:kreska pseudotaktowa	!	!	!	!	!	!	!	!	!
4C/	de	4C/	de	.	.	.	2c/	.	.	.	.
=13-	=13-	=13-	=13-	=13-	=13-	=13-	=13-	=13-	=13-	=13-	=13-
(8E\L	DE-	8E\L	DE-	.	2G/	lu-	.	.	.	2r	.
8F\J	.	8F\J	.	.	.	.	.	.	.	.	.
2G\)	.	(2G\	.	.	.	.	4B/	.	.	.	.
!	!	!	!	!	!LO:TX:t=P:problem:kreska pseudotaktowa	!	!LO:TX:t=P:problem:kreska pseudotaktowa:między nutą a kropką	!	!	!	!
.	.	.	.	.	2A/	-men	2.d\	-o	.	4r	.
!LO:TX:t=P:problem:kreska pseudotaktowa	!	!LO:TX:t=P:problem:kreska pseudotaktowa	!	!	!	!	!	!	!	!LO:TX:t=P:problem:kreska pseudotaktowa	!
4F#X\	.	4F#X\)	.	.	.	.	.	.	.	4dd\	DE-
4G,<\	-O	4G,<\	-o	.	2B\	de	.	.	.	4b\	-um
4G\	Lu-	4G\	lu-	.	.	.	4d\	lu-	.	4g/	de
!	!	!	!	!	!LO:TX:t=P:problem:kreska pseudotaktowa	!	!	!	!	!	!
4Fn\	-men	4Fny\	-men	.	2c\	lu-	4fny\	-men	.	8a\L	DE-
.	.	.	.	.	.	.	.	.	.	8b\J	.
!LO:TX:t=P:problem:kreska pseudotaktowa	!	!LO:TX:t=P:problem:kreska pseudotaktowa	!	!	!	!	!	!	!	!	!
4E\	de	4E\	de	.	.	.	4g\	de	.	2cc\	.
=14-	=14-	=14-	=14-	=14-	=14-	=14-	=14-	=14-	=14-	=14-	=14-
4.G\	l(u-	4.G\	lu-	.	2d\	-mi-	4.g\	lu-	.	.	.
.	.	.	.	.	.	.	.	.	.	4b\	.
8GG/	-mi)-	8G\	-mi-	.	.	.	8g\	-mi-	.	.	.
!	!	!	!	!	!	!	!LO:TX:t=P:problem:kreska pseudotaktowa	!	!	!LO:LB:g=original	!
4C,</	-ne	4C,</	-ne	.	4e,<\	-ne	2g\	-ne	.	4cc\	-o
!	!	!	!	!	!	!	!	!	!	!LO:TX:t=P:problem:kreska pseudotaktowa	!
8E\	De-	8E\	DE-	.	8e\	DE-	.	.	.	4cc\	lu-
!	!	!LO:TX:t=P:problem:kreska pseudotaktowa	!	!	!LO:TX:t=P:problem:kreska pseudotaktowa	!	!	!	!	!	!
8F\	-um	8F\	-um	.	8e\	-um	.	.	.	.	.
!LO:LB:g=original	!	!	!	!	!	!	!	!	!	!	!
4G\	Ve-	4G\	VE-	.	2d\	VE-	4r	.	.	4cc\	-men
8G\	-rum	8G,<\	-rum	.	.	.	8d\	DE-	.	4b\	de
8G\	de	8G\	de	.	.	.	8e\	-um	.	.	.
(8F\L	De-	(8F\L	DE-	.	4d\	-rum	4f\	Ve-	.	4.a\	lu-
8E\	.	8E\	.	.	.	.	.	.	.	.	.
!	!	!	!	!	!LO:TX:t=P:problem:kreska pseudotaktowa	!	!	!	!	!	!
8F\	.	8F\	.	.	4d\	de	8f\	-rum	.	.	.
!LO:TX:t=P:problem:kreska pseudotaktowa	!	!LO:TX:t=P:problem:kreska pseudotaktowa	!	!	!	!	!LO:TX:t=P:problem:kreska pseudotaktowa	!	!	!LO:TX:t=P:problem:kreska pseudotaktowa	!
8G\J)	.	8G\J)	.	.	.	.	8f\	de	.	8a\	-mi-
!	!	!LO:LB:g=original	!	!	!	!	!	!	!	!	!
=15-	=15-	=15-	=15-	=15-	=15-	=15-	=15-	=15-	=15-	=15-	=15-
4A\	-o	4A\	-o	.	2c\	DE-	(8e\	De-	.	2a\	-ne
.	.	.	.	.	.	.	8d\)	.	.	.	.
4A\	.	4A\	VE-	.	.	.	(8e\	.	.	.	.
.	.	.	.	.	.	.	8f\)	.	.	.	.
8E\L	ve-	8E\L	.	.	2B\	-o	4g\	.	.	4r	.
8F\J	.	8F\J	.	.	.	.	.	.	.	.	.
!LO:TX:t=P:problem:kreska pseudotaktowa	!	!	!	!	!	!	!LO:TX:t=P:problem:kreska pseudotaktowa	!	!	!	!
[<4G\	.	(2G\	.	.	.	.	4d\	-o	.	8g\	DE-
!	!	!	!	!	!	!	!	!	!	!LO:TX:t=P:problem:kreska pseudotaktowa	!
.	.	.	.	.	.	.	.	.	.	8g\	-um
!	!	!	!	!	!	!	!LO:LB:g=original	!	!	!	!
4G]	.	.	.	.	2A/	VE-	2d\	ve-	.	4a\	Ve-
4F#X\	.	4F#X\)	.	.	.	.	.	.	.	8a\	-rum
.	.	.	.	.	.	.	.	.	.	8a\	de
!LO:TX:t=P:problem:kreska pseudotaktowa	!	!LO:TX:t=P:problem:kreska pseudotaktowa	!	!	!LO:TX:t=P:problem:kreska pseudotaktowa	!	!LO:TX:t=P:problem:kreska pseudotaktowa	!	!	!	!
2G\	-ro.	2G\	-ro	.	2G/	-ro	2d\	-ro	.	4b\	DE-
.	.	.	.	.	.	.	.	.	.	8b\	-o
!	!	!	!	!	!	!	!	!	!	!LO:TX:t=P:problem:kreska pseudotaktowa	!
.	.	.	.	.	.	.	.	.	.	8b\	de
=16-	=16-	=16-	=16-	=16-	=16-	=16-	=16-	=16-	=16-	=16-	=16-
!LO:TX:t=P:problem:kreska pseudotaktowa	!	!LO:TX:t=P:problem:kreska pseudotaktowa	!	!	!	!	!	!	!	!	!
1r	.	1r	.	.	2r	.	4e\	Ge-	.	4cc\	DE-
.	.	.	.	.	.	.	4f\	-ni-	.	4cc\	-o
!	!	!	!	!	!LO:LB:g=original	!	!	!	!	!LO:TX:t=P:problem:kreska pseudotaktowa	!
.	.	.	.	.	8G\	Con-	8d\	-tum	.	2dd\	VE-
.	.	.	.	.	8A\	-ſub-	8d\	Non	.	.	.
!	!	!	!	!	!	!	!LO:TX:t=P:problem:kreska pseudotaktowa:między nutą a kropką	!	!	!	!
.	.	.	.	.	8B\	-ſtan-	4.g\	fa-	.	.	.
!	!	!	!	!	!LO:TX:t=P:problem:kreska pseudotaktowa	!	!	!	!	!	!
.	.	.	.	.	8G\	-ti-	.	.	.	.	.
4.C/	con-	4.C/	Con-	.	4.c\	-a-	.	.	.	2ee\	-ro
.	.	.	.	.	.	.	8f\	.	.	.	.
.	.	.	.	.	.	.	8g\	.	.	.	.
8C/	-sub-	8C/	-ſub-	.	8c\	-lem	8e\	.	.	.	.
!	!	!	!	!	!LO:TX:t=P:problem:kreska pseudotaktowa	!	!LO:TX:t=P:problem:kreska pseudotaktowa	!	!	!LO:TX:t=P:problem:kreska pseudotaktowa	!
4D\	-stan-	4D/	-ſtan-	.	2A/	Pa-	2f#X\	.	.	2r	.
!LO:TX:t=P:problem:kreska pseudotaktowa	!	!LO:TX:t=P:problem:kreska pseudotaktowa	!	!	!	!	!	!	!	!	!
4D\	-ti-	4D/	-ti-	.	.	.	.	.	.	.	.
=17-	=17-	=17-	=17-	=17-	=17-	=17-	=17-	=17-	=17-	=17-	=17-
4E\	-a-	4E\	-a-	.	2G/	-tri	2g\	-ctum	.	4b\	Ge-
4E\	-lem	4E,<\	-lem	.	.	.	.	.	.	4cc\	-ni-
4Fny\	P(a-	4Fny\	Pa-	.	4r	.	8d\	Con-	.	8a\	-tum
.	.	.	.	.	.	.	8e\	-ſub-	.	8a\	Non
!LO:TX:t=P:problem:kreska pseudotaktowa	!	!LO:TX:t=P:problem:kreska pseudotaktowa	!	!	!	!	!	!	!	!LO:TX:t=P:problem:kreska pseudotaktowa:między nutą a kropką	!
4F,<\	-t)ri	4F\	-tri	.	8A\	per	8fny\	-ſtan-	.	4.dd\	fa-
!	!	!	!	!	!LO:TX:t=P:problem:kreska pseudotaktowa	!	!LO:TX:t=P:problem:kreska pseudotaktowa	!	!	!	!
.	.	.	.	.	8A\	quem	8d\	-ti-	.	.	.
4G\	per	4G\	per	.	4B\	o-	4g\	-a-	.	.	.
.	.	.	.	.	.	.	.	.	.	8cc\	.
4G\	quem	4G\	quem	.	8B\	-mni-	4g\	-lem	.	8dd\	.
.	.	.	.	.	8B\	-a	.	.	.	8b\	.
!	!	!	!	!	!	!	!LO:TX:t=P:problem:kreska pseudotaktowa	!	!	!LO:TX:t=P:problem:kreska pseudotaktowa	!
4A\	o-	4A\	o-	.	4.A/	fa-	2e\	Pa-	.	2cc#X\	.
!LO:TX:t=P:problem:kreska pseudotaktowa	!	!LO:TX:t=P:problem:kreska pseudotaktowa	!	!	!	!	!	!	!	!	!
4AA/	-(mn)i-	4AA/	-mni-	.	.	.	.	.	.	.	.
!	!	!	!	!	!LO:TX:t=P:problem:kreska pseudotaktowa	!	!	!	!	!	!
.	.	.	.	.	8A/	-cta	.	.	.	.	.
!	!	!	!	!	!	!	!	!	!	!LO:LB:g=original	!
=18-	=18-	=18-	=18-	=18-	=18-	=18-	=18-	=18-	=18-	=18-	=18-
2.D/	-a	2.D/	-a	.	2A/	ſunt	2.f\	-tri	.	2dd\	-ctum
.	.	.	.	.	4r	.	.	.	.	8a\	Con-
.	.	.	.	.	.	.	.	.	.	8b\	-ſub-
*	*ij	*	*	*	*	*	*	*	*	*	*
!	!	!	!	!	!LO:TX:t=P:problem:kreska pseudotaktowa	!	!	!	!	!	!
8C/	per	8C/	per	.	4c\	fa-	8e\	per	.	8ccny\	-ſtan-
!LO:TX:t=P:problem:kreska pseudotaktowa	!	!LO:TX:t=P:problem:kreska pseudotaktowa	!	!	!	!	!LO:TX:t=P:problem:kreska pseudotaktowa	!	!	!LO:TX:t=P:problem:kreska pseudotaktowa	!
8C/	quem	8C/	quem	.	.	.	8e\	quem	.	8a\	-ti-
4D\	o-	4D/	o-	.	8B\L	.	4f\	o-	.	4dd\	-a-
.	.	.	.	.	8A\J	.	.	.	.	.	.
8D\	-(mn)i-	8D/	-mni-	.	2A\	.	8f\	-mni-	.	4dd\	-lem
8D\	-a	8D/	-a	.	.	.	8f\	-a	.	.	.
*	*Xij	*	*	*	*	*	*	*	*	*	*
!	!	!	!	!	!	!	!	!	!	!LO:TX:t=P:problem:kreska pseudotaktowa	!
4.E\	fa-	4.E\	fa-	.	.	.	4.e\	fa-	.	2b\	Pa-
!	!	!	!	!	!LO:TX:t=P:problem:kreska pseudotaktowa	!	!	!	!	!	!
.	.	.	.	.	4G#X/	-cta	.	.	.	.	.
!LO:TX:t=P:problem:kreska pseudotaktowa	!	!LO:TX:t=P:problem:kreska pseudotaktowa	!	!	!	!	!LO:TX:t=P:problem:kreska pseudotaktowa	!	!	!	!
8E\	-cta	8E\	-cta	.	.	.	8e\	-cta	.	.	.
=19-	=19-	=19-	=19-	=19-	=19-	=19-	=19-	=19-	=19-	=19-	=19-
4AA,</	sunt	4AA,</	ſunt	.	4A/	ſunt	4e\	ſunt	.	4cc\	-tri
*	*	*	*	*	*	*	*	*ij	*	*	*
8A\	p(er)	8A\	per	.	8A/	per	8e\	per	.	8cc\	per
8A\	Quem	8A\	que(m)	.	8A/	quem	8e\	quem	.	8cc\	quem
!LO:LB:g=original	!	!LO:LB:g=original	!	!	!	!	!LO:LB:g=original	!	!	!	!
4G\	o-	4G\	o-	.	4B\	o-	4g\	O-	.	4dd\	o-
8G\	-mni-	8G\	-mni-	.	8B\	-mni-	8g\	-mni-	.	8dd\	-mni-
!LO:TX:t=P:problem:kreska pseudotaktowa	!	!LO:TX:t=P:problem:kreska pseudotaktowa	!	!	!LO:TX:t=P:problem:kreska pseudotaktowa	!	!LO:TX:t=P:problem:kreska pseudotaktowa	!	!	!LO:TX:t=P:problem:kreska pseudotaktowa	!
8F\	-a	8F\	-a	.	8B\	-a	8g\	-a	.	8dd\	-a
4.E\	fa-	(4.E\	fa-	.	8c\L	fa-	2.g\	fa-	.	8ee\	fa-
.	.	.	.	.	8d\J	.	.	.	.	8dd\	.
.	.	.	.	.	4e\	.	.	.	.	2cc\	.
8F\	.	8F\	.	.	.	.	.	.	.	.	.
!	!	!	!	!	!LO:LB:g=original	!	!	!	!	!	!
4.G\	.	4.G\)	.	.	4.d\	.	.	.	.	.	.
!	!	!	!	!	!	!	!LO:TX:t=P:problem:kreska pseudotaktowa	!	!	!LO:TX:t=P:problem:kreska pseudotaktowa	!
.	.	.	.	.	.	.	4g\	-cta	.	4b\	-cta
!LO:TX:t=P:problem:kreska pseudotaktowa	!	!LO:TX:t=P:problem:kreska pseudotaktowa	!	!	!LO:TX:t=P:problem:kreska pseudotaktowa	!	!	!	!	!	!
8GG/	-cta	8G\	-cta	.	8d\	-cta	.	.	.	.	.
=20-	=20-	=20-	=20-	=20-	=20-	=20-	=20-	=20-	=20-	=20-	=20-
4C,</	sunt	4C,</	ſunt	.	(8e\L	ſunt	4g\	ſunt	.	2cc\	ſunt
.	.	.	.	.	8d\	.	.	.	.	.	.
*	*	*	*	*	*	*	*	*Xij	*	*	*
4C/	Qui	4C/	qui	.	8c\	.	4e\	Qui	.	.	.
.	.	.	.	.	8B\J)	.	.	.	.	.	.
!	!	!	!	!	!LO:TX:t=P:problem:kreska pseudotaktowa	!	!LO:TX:t=P:problem:kreska pseudotaktowa	!	!	!LO:TX:t=P:problem:kreska pseudotaktowa	!
4D\	prop-	4D\	prop-	.	2A/	.	2f\	prop-	.	2r	.
8D\	-(te)r	8D\	-ter	.	.	.	.	.	.	.	.
!LO:TX:t=P:problem:kreska pseudotaktowa	!	!LO:TX:t=P:problem:kreska pseudotaktowa	!	!	!	!	!	!	!	!	!
8D\	.	8D\	Nos	.	.	.	.	.	.	.	.
4.E\	ho-	4E\	ho-	.	4r	.	4g\	-ter	.	4b\	qui
.	.	4E\	-mi-	.	4Gny/	Qui	4e\	Nos	.	2cc\	prop-
8E\	-mi-	.	.	.	.	.	.	.	.	.	.
4F,<\	-nes	4F,<\	-nes	.	4A/	prop-	8a\L	ho-	.	.	.
.	.	.	.	.	.	.	8g\	.	.	.	.
!LO:TX:t=P:problem:kreska pseudotaktowa	!	!LO:TX:t=P:problem:kreska pseudotaktowa	!	!	!	!	!	!	!	!LO:TX:t=P:problem:kreska pseudotaktowa	!
4F\	et	4F\	et	.	8A/	-ter	8f\	.	.	4dd\	-ter
!	!	!	!	!	!LO:TX:t=P:problem:kreska pseudotaktowa	!	!LO:TX:t=P:problem:kreska pseudotaktowa	!	!	!	!
.	.	.	.	.	8A/	nos	8e\J	.	.	.	.
=21-	=21-	=21-	=21-	=21-	=21-	=21-	=21-	=21-	=21-	=21-	=21-
4G\	p(ro)p-	4G\	p(ro)p-	.	4B\	ho-	4d\	.	.	4b\	Nos
4G\	-(te)r	4G\	-ter	.	4B\	-mi-	2g\	-mi-	.	8ee\L	ho-
.	.	.	.	.	.	.	.	.	.	8dd\	.
!LO:TX:t=P:problem:kreska pseudotaktowa	!	!LO:TX:t=P:problem:kreska pseudotaktowa	!	!	!	!	!	!	!	!	!
2A\	no-	2A\	No-	.	4c,<\	-nes	.	.	.	8cc\	.
.	.	.	.	.	.	.	.	.	.	8b\J	.
!	!	!	!	!	!LO:TX:t=P:problem:kreska pseudotaktowa	!	!LO:TX:t=P:problem:kreska pseudotaktowa	!	!	!LO:TX:t=P:problem:kreska pseudotaktowa	!
.	.	.	.	.	4c\	et	4f#X\	.	.	4a\	.
(4.G\	.	4.G\	.	.	4d\	prop-	4g\	-nes	.	4b\	.
.	.	.	.	.	4d\	-ter	4g\	et	.	2dd\	.
8F\)	.	8F\	.	.	.	.	.	.	.	.	.
!	!	!	!	!	!LO:TX:t=P:problem:kreska pseudotaktowa	!	!	!	!	!	!
4E,<\	-stram	4E,<\	-ſtram	.	2e\	No-	4g\	prop-	.	.	.
!LO:TX:t=P:problem:kreska pseudotaktowa	!	!LO:TX:t=P:problem:kreska pseudotaktowa	!	!	!	!	!LO:TX:t=P:problem:kreska pseudotaktowa	!	!	!LO:TX:t=P:problem:kreska pseudotaktowa	!
4E\	Sa-	4E\	ſa-	.	.	.	4g\	-ter	.	4cc#X\	-mi-
!	!	!	!	!	!	!	!	!	!	!LO:LB:g=original	!
=22-	=22-	=22-	=22-	=22-	=22-	=22-	=22-	=22-	=22-	=22-	=22-
!	!	!	!	!	!	!	!	!	!	!LO:TX:t=P:problem:wykreślone 4d#	!
2D/	-lu-	2D/	-lu-	.	4A\	-ſtram	4fny\	No-	.	4dd\	-nes
.	.	.	.	.	4B\	ſa-	8f\	-ſtram	.	4dd\	et
.	.	.	.	.	.	.	8f\	ſa-	.	.	.
!	!	!	!	!	!LO:TX:t=P:problem:kreska pseudotaktowa	!	!	!	!	!	!
4AA,</	-tem	4AA,</	-tem	.	2c\	-lu-	4.e\	.	.	4ccny\	prop-
!LO:TX:t=P:problem:kreska pseudotaktowa	!	!LO:TX:t=P:problem:kreska pseudotaktowa	!	!	!	!	!	!	!	!LO:TX:t=P:problem:kreska pseudotaktowa	!
4A\	de-	4A\	de-	.	.	.	.	.	.	4cc\	-ter
!	!	!	!	!	!	!	!LO:TX:t=P:problem:kreska pseudotaktowa	!	!	!	!
.	.	.	.	.	.	.	8f\	.	.	.	.
2G\	-scen-	2G\	-ſcen-	.	4d,<\	-tem	2g\	-lu-	.	4b\	No-
.	.	.	.	.	4d\	de-	.	.	.	8b\	-ſtram
.	.	.	.	.	.	.	.	.	.	8cc\	ſa-
!LO:TX:t=P:problem:kreska pseudotaktowa	!	!LO:TX:t=P:problem:kreska pseudotaktowa	!	!	!	!	!	!	!	!	!
2Fn\	.	2F\	-dit	.	8f\L	-ſcen-	4a\	-tem	.	8dd\L	-lu-
.	.	.	.	.	8e\	.	.	.	.	8a\J	.
!	!	!	!	!	!	!	!LO:TX:t=P:problem:kreska pseudotaktowa	!	!	!	!
.	.	.	.	.	8f\	.	4a\	de-	.	2dd\	.
!	!	!	!	!	!LO:TX:t=P:problem:kreska pseudotaktowa	!	!	!	!	!	!
.	.	.	.	.	8d\J	.	.	.	.	.	.
=23-	=23-	=23-	=23-	=23-	=23-	=23-	=23-	=23-	=23-	=23-	=23-
2E\	.	2E\	de-	.	2e\	.	8g\L	-ſcen-	.	.	.
.	.	.	.	.	.	.	8f\	.	.	.	.
.	.	.	.	.	.	.	8g\	.	.	4cc#X\	.
.	.	.	.	.	.	.	8e\J	.	.	.	.
!	!	!LO:LB:g=original	!	!	!	!	!	!	!	!	!
!LO:TX:t=P:problem:kreska pseudotaktowa	!	!LO:TX:t=P:problem:kreska pseudotaktowa	!	!	!LO:TX:t=P:problem:kreska pseudotaktowa	!	!LO:TX:t=P:problem:kreska pseudotaktowa	!	!	!LO:TX:t=P:problem:kreska pseudotaktowa	!
2D/	.	2D/	-ſcen-	.	2A/	-dit	2f\	.	.	2dd\	-tem
!	!	!	!	!	!	!	!LO:LB:g=original	!	!	!	!
2C/	.	2C,</	-dit	.	4r	.	4.e\	.	.	4r	.
.	.	.	.	.	4G/	de-	.	.	.	4ee\	de-
.	.	.	.	.	.	.	8f\	.	.	.	.
!LO:TX:t=P:problem:kreska pseudotaktowa	!	!LO:TX:t=P:problem:kreska pseudotaktowa	!	!	!	!	!	!	!	!	!
2BB/	.	2BB/	de-	.	8B\L	-ſcen-	4g\	-dit	.	8dd\L	-ſcen-
.	.	.	.	.	8A\	.	.	.	.	8cc#\	.
.	.	.	.	.	8B\	.	2g\	de	.	8dd\	.
!	!	!	!	!	!LO:TX:t=P:problem:kreska pseudotaktowa	!	!	!	!	!LO:TX:t=P:problem:kreska pseudotaktowa	!
.	.	.	.	.	8G\J	.	.	.	.	8b\J	.
!	!	!	!	!	!LO:LB:g=original	!	!	!	!	!	!
=24-	=24-	=24-	=24-	=24-	=24-	=24-	=24-	=24-	=24-	=24-	=24-
2AA/	.	2AA/	-ſcen-	.	2A/	.	.	.	.	2ccny\	.
.	.	.	.	.	.	.	4f#X\	Cae-	.	.	.
!LO:LB:g=original	!	!	!	!	!LO:TX:t=P:problem:kreska pseudotaktowa	!	!	!	!	!LO:TX:t=P:problem:kreska pseudotaktowa	!
4GG/	-dit	4GG,</	-dit	.	[<2d\	-dit	4g\	-lis	.	2b\	.
!LO:TX:t=P:problem:kreska pseudotaktowa	!	!LO:TX:t=P:problem:kreska pseudotaktowa	!	!	!	!	!LO:TX:t=P:problem:kreska pseudotaktowa	!	!	!	!
4G\	de	4G\	de	.	.	.	4g\	de	.	.	.
!	!	!	!	!	!LO:N:xstem:cue	!	!	!	!	!	!
4.D\	cae-	(4.D\	Cae-	.	4d\]	.	4.f#\	Cae-	.	2a\	dit
.	.	.	.	.	4d\	de	.	.	.	.	.
8E\	.	8E\	.	.	.	.	8g\	.	.	.	.
!LO:SIC:v:s=4.F#	!	!LO:SIC:v:s=4.F#\)	!	!	!	!	!	!	!	!	!
4.F\	.	4.F\)	.	.	4.A\	Cae-	4a\	.	.	4dd\	de
!	!	!	!	!	!	!	!LO:TX:t=P:problem:kreska pseudotaktowa	!	!	!LO:TX:t=P:problem:kreska pseudotaktowa:między nutą a kropką	!
.	.	.	.	.	.	.	4f#\	.	.	4.a\	Cae-
!LO:TX:t=P:problem:kreska pseudotaktowa	!	!LO:TX:t=P:problem:kreska pseudotaktowa	!	!	!LO:TX:t=P:problem:kreska pseudotaktowa	!	!	!	!	!	!
8G\	.	8G\	.	.	8B\	.	.	.	.	.	.
=25-	=25-	=25-	=25-	=25-	=25-	=25-	=25-	=25-	=25-	=25-	=25-
4A\	.	4A\	.	.	8c\L	.	4e\	.	.	.	.
.	.	.	.	.	8d\J	.	.	.	.	8b\	.
(8E\L	.	4E\	.	.	4e\	.	4g\	.	.	2cc\	.
8F\J)	.	.	.	.	.	.	.	.	.	.	.
!LO:TX:t=P:problem:kreska pseudotaktowa	!	!LO:TX:t=P:problem:kreska pseudotaktowa	!	!	!LO:TX:t=P:problem:kreska pseudotaktowa	!	!LO:TX:t=P:problem:kreska pseudotaktowa	!	!	!	!
2G\	.	2G\	.	.	2d\	.	2g\	.	.	.	.
!	!	!	!	!	!	!	!	!	!	!LO:TX:t=P:problem:kreska pseudotaktowa	!
.	.	.	.	.	.	.	.	.	.	4b\	.
!LO:TX:t=P:problem:podwójna kreska pseudotaktowa	!	!LO:TX:t=P:problem:podwójna kreska pseudotaktowa	!	!	!LO:TX:t=P:problem:kreska pseudotaktowa	!	!LO:TX:t=P:problem:kreska pseudotaktowa	!	!	!LO:TX:t=P:problem:kreska pseudotaktowa	!
1C;<	-lis.	1C;	-lis.	.	1e	-lis.	1g;	-lis	.	1cc;	-lis
=26-	=26-	=26-	=26-	=26-	=26-	=26-	=26-	=26-	=26-	=26-	=26-
4r	.	4r	.	.	4r	.	4r	.	.	4r	.
!	!	!LO:TX:t=P:problem:inną ręką dopisany tekst: Benedictus	!	!	!	!	!	!	!	!	!
2C/	Et	2C/	Et	Be-	2c\	Et	2e\	Et	.	2g/	Et
8C/	in-	8C/	in-	-ne-	8c\	in-	8e\	in-	.	8g/	in-
!LO:TX:t=P:problem:kreska pseudotaktowa	!	!LO:TX:t=P:problem:kreska pseudotaktowa	!	!	!LO:TX:t=P:problem:kreska pseudotaktowa	!	!LO:TX:t=P:problem:kreska pseudotaktowa	!	!	!LO:TX:t=P:problem:kreska pseudotaktowa	!
8C/	-car-	8C/	-car-	-di-	8c\	-car-	8e\	-car-	.	8g/	-car-
!	!	!	!	!	!	!	!	!	!	!LO:LB:g=original	!
4C/	-na-	4C/	-na-	-ctus	4c\	-na-	4e\	-na-	.	4g/	-na-
4D,</	-t(us)	4D/	-tus	qui	4A\	-tus	4d\	-tus	.	4f/	-tus
4AA,</	est	4AA,</	eſt	ve-	4A\	eſt	4c#X\	eſt	.	4e/	eſt
!LO:TX:t=P:problem:kreska pseudotaktowa	!	!LO:TX:t=P:problem:kreska pseudotaktowa	!	!	!LO:TX:t=P:problem:kreska pseudotaktowa	!	!LO:TX:t=P:problem:kreska pseudotaktowa	!	!	!LO:TX:t=P:problem:kreska pseudotaktowa	!
4A\	de	4A\	de	-nit	4c\	de	4e\	de	.	4a\	de
=27-	=27-	=27-	=27-	=27-	=27-	=27-	=27-	=27-	=27-	=27-	=27-
4.G\	Sp(i-	4.G\	ſpi-	in	4.d\	Spi-	4.g\	ſpi-	.	4.b\	ſpi-
8F\	-ri)-	8F\	-ri-	N(o-	8d\	-ri-	8g\	-ri-	.	8b\	-ri-
!LO:TX:t=P:problem:kreska pseudotaktowa	!	!LO:TX:t=P:problem:kreska pseudotaktowa	!	!	!LO:TX:t=P:problem:kreska pseudotaktowa	!	!LO:TX:t=P:problem:kreska pseudotaktowa	!	!	!LO:TX:t=P:problem:kreska pseudotaktowa	!
2E\	-tu	2E\	-tu	-mi)-	2e\	-tu	2g\	-tu	.	2cc\	-tu
2F\	San-	(2F\	San-	-ne	8d\L	San-	2fny\	San-	.	2a/	San-
.	.	.	.	.	8c\J	.	.	.	.	.	.
.	.	.	.	.	2c\	.	.	.	.	.	.
!LO:TX:t=P:problem:kreska pseudotaktowa	!	!LO:TX:t=P:problem:kreska pseudotaktowa	!	!	!	!	!LO:TX:t=P:problem:kreska pseudotaktowa	!	!	!LO:TX:t=P:problem:kreska pseudotaktowa	!
2G\	.	2G\)	.	Do-	.	.	2d\	.	.	2g/	.
!	!	!	!	!	!LO:TX:t=P:problem:kreska pseudotaktowa	!	!	!	!	!	!
.	.	.	.	.	4B\	.	.	.	.	.	.
!	!	!LO:LB:g=original	!	!	!	!	!	!	!	!	!
=28-	=28-	=28-	=28-	=28-	=28-	=28-	=28-	=28-	=28-	=28-	=28-
2C/	-cto	2C/	-cto.	-mini	4c,<\	-cto	4e\	cto	.	4g/	cto
.	.	.	.	.	2c\	ex	2e\	ex	.	2g/	ex
!LO:TX:t=P:problem:kreska pseudotaktowa	!	!LO:TX:t=P:problem:kreska pseudotaktowa	!	!	!	!	!	!	!	!	!
2r	.	2rC	.	.	.	.	.	.	.	.	.
!	!	!	!	!	!LO:TX:t=P:problem:kreska pseudotaktowa	!	!LO:TX:t=P:problem:kreska pseudotaktowa	!	!	!LO:TX:t=P:problem:kreska pseudotaktowa	!
.	.	.	.	.	4B\	Ma-	4d\	Ma-	.	4g/	Ma-
!LO:TX:t=P:problem:kreska pseudotaktowa	!	!LO:TX:t=P:problem:kreska pseudotaktowa	!	!	!	!	!LO:PB:g=original	!	!	!	!
1rA	.	1rE	.	.	4A/	-ri-	8e\	-ri-	.	4cc\	-ri-
.	.	.	.	.	.	.	8e\	-a	.	.	.
.	.	.	.	.	4G/	-a	2e\	Vir-	.	4b\	-a
!	!	!	!	!	!LO:LB:g=original	!	!	!	!	!	!
.	.	.	.	.	4.F/	Vir-	.	.	.	4.a\	Vir-
!	!	!	!	!	!	!	!LO:TX:t=P:problem:kreska pseudotaktowa	!	!	!	!
.	.	.	.	.	.	.	4d\	-gi-	.	.	.
!	!	!	!	!	!LO:TX:t=P:problem:kreska pseudotaktowa	!	!	!	!	!LO:TX:t=P:problem:kreska pseudotaktowa	!
.	.	.	.	.	8F/	-gi-	.	.	.	8a\	-gi-
=29-	=29-	=29-	=29-	=29-	=29-	=29-	=29-	=29-	=29-	=29-	=29-
2r	.	2r	.	.	2E/	-ne	2e\	-ne	.	2g#X/	-ne
4r	.	4r	.	.	4r	.	4r	.	.	4r	.
!LO:TX:t=P:problem:kreska pseudotaktowa	!	!LO:TX:t=P:problem:kreska pseudotaktowa	!	!	!LO:TX:t=P:problem:kreska pseudotaktowa	!	!LO:TX:t=P:problem:kreska pseudotaktowa	!	!	!LO:TX:t=P:problem:kreska pseudotaktowa	!
4C/	et	4C/	et	qui	4e\	et	4g\	et	.	4cc\	et
4GG/	Ho-	4GG/	Ho-	ve-	4d\	ho-	4g\	Ho-	.	4b\	ho-
4GG/	-mo	4GG/	-mo	-nit	4d\	-mo	4g\	-mo	.	4b\	-mo
4.D/	Fa-	4.D/	fa-	in	8d\L	fa-	4.f\	fa-	.	4.a\	fa-
.	.	.	.	.	16c\L	.	.	.	.	.	.
.	.	.	.	.	(16B\JJ	.	.	.	.	.	.
!	!	!	!	!	!LO:TX:t=P:problem:kreska pseudotaktowa:między nutą a kropką	!	!	!	!	!	!
.	.	.	.	.	4.A\	.	.	.	.	.	.
!	!	!	!	!	!	!	!	!	!	!LO:TX:t=P:problem:kreska pseudotaktowa	!
16C/LL	.	16C/LL	.	No-	.	.	16e\LL	.	.	8b\	.
!LO:TX:t=P:problem:kreska pseudotaktowa	!	!LO:TX:t=P:problem:kreska pseudotaktowa	!	!	!	!	!LO:TX:t=P:problem:kreska pseudotaktowa	!	!	!	!
16BB/JJ	.	16BB/JJ	.	.	.	.	16d\JJ	.	.	.	.
=30-	=30-	=30-	=30-	=30-	=30-	=30-	=30-	=30-	=30-	=30-	=30-
4.AA/	.	4.AA/	.	-mi-	.	.	4e\	.	.	4.cc\	.
.	.	.	.	.	8B\J)	.	.	.	.	.	.
.	.	.	.	.	4.c\	.	4e\	-ctus	.	.	.
8BB/	.	8BB/	.	-ne	.	.	.	.	.	16b\LL	.
.	.	.	.	.	.	.	.	.	.	16a\JJ	.
4.C/	.	4.C/	.	Do-	.	.	4.e\	fa-	.	4gny/	.
.	.	.	.	.	16B\LL	.	.	.	.	.	.
.	.	.	.	.	16A\JJ	.	.	.	.	.	.
!	!	!	!	!	!LO:TX:t=P:problem:kreska pseudotaktowa	!	!	!	!	!	!
.	.	.	.	.	4G/	.	.	.	.	2cc\	.
16BB/LL	.	16BB/LL	.	.	.	.	16d\LL	.	.	.	.
!LO:TX:t=P:problem:kreska pseudotaktowa	!	!LO:TX:t=P:problem:kreska pseudotaktowa	!	!	!	!	!LO:TX:t=P:problem:kreska pseudotaktowa	!	!	!	!
16AA/JJ	.	16AA/JJ	.	.	.	.	16cny\JJ	.	.	.	.
2.GG/	.	2.GG/	.	.	1G	-ctus	2.d\	.	.	.	.
.	.	.	.	.	.	.	.	.	.	8b\L	.
.	.	.	.	.	.	.	.	.	.	8a\J	.
!	!	!	!	!	!	!	!	!	!	!LO:PB:g=original	!
.	.	.	.	.	.	.	.	.	.	4.b\	.
4GG/	-ct(us)	4GG/	-ctus	-mi-	.	.	4d\	-ctus	.	.	.
!	!	!	!	!	!	!	!	!	!	!LO:TX:t=P:problem:kreska pseudotaktowa	!
.	.	.	.	.	.	.	.	.	.	8b\	-ctus
=31-	=31-	=31-	=31-	=31-	=31-	=31-	=31-	=31-	=31-	=31-	=31-
0Cl;	est.	0Cl;;	eſt.	-ni.	0Gl;;	eſt	0el;;	eſt	.	0ccl;;	eſt
!LO:PB:g=original	!	!	!	!	!	!	!	!	!	!	!
=32||	=32||	=32||	=32||	=32||	=32||	=32||	=32||	=32||	=32||	=32||	=32||
*M2/1	*	*M2/1	*	*	*M2/1	*	*M2/1	*	*	*M2/1	*
*met(C)	*	*met(C)	*	*	*met(C)	*	*met(C)	*	*	*met(C)	*
!	!	!	!	!	!	!	!LO:TX:t=P:problem:kreska pseudotaktowa	!	!	!	!
!	!	!	!	!	!	!	!LO:TX:b:t=Crucifixus	!	!	!LO:TX:b:t=Crucifixus	!
!LO:TX:a:t=T.	!	!LO:TX:t=P:problem:inną ręką dopisany tekst: Agnus Dei	!	!	!LO:TX:t=P:problem:kreska pseudotaktowa	!	!LO:TX:a:t=Agng II.	!	!	!LO:TX:t=P:problem:kreska pseudotaktowa	!
4C/	Cru-	4C/	Cru-	2. A-	1r	.	1r	.	.	0r	.
4C/	-ci-	4C/	-ci-	-gn(us)	.	.	.	.	.	.	.
4D\	-fi-	4D/	-fi-	De-	.	.	.	.	.	.	.
!LO:TX:t=P:problem:kreska pseudotaktowa	!	!LO:TX:t=P:problem:kreska pseudotaktowa	!	!	!	!	!	!	!	!	!
4D\	-x(us)	4D/	-xus	-i	.	.	.	.	.	.	.
8E\	e-	8E\	e-	qui	4G/	Cru-	2r	.	.	.	.
8E\	-ti-	8E\	-ti-	tol-	.	.	.	.	.	.	.
8E\	-am	8E\	-am	-lis	4G/	-ci-	.	.	.	.	.
8E\	p(ro)	8E\	pro	pec-	.	.	.	.	.	.	.
!	!	!LO:PB:g=original	!	!	!	!	!	!	!	!	!
!LO:TX:t=P:problem:kreska pseudotaktowa	!	!LO:TX:t=P:problem:kreska pseudotaktowa	!	!	!	!	!	!	!	!	!
(2F\	no-	(2F\	No-	-ca-	4A\	-fi-	8r	.	.	.	.
.	.	.	.	.	.	.	8f\	Sub	.	.	.
!	!	!	!	!	!LO:TX:t=P:problem:kreska pseudotaktowa	!	!	!	!	!	!
.	.	.	.	.	4A\	-xus	8f\	Pon-	.	.	.
!	!	!	!	!	!	!	!LO:TX:t=P:problem:kreska pseudotaktowa	!	!	!	!
.	.	.	.	.	.	.	8e\	-ti-	.	.	.
=33-	=33-	=33-	=33-	=33-	=33-	=33-	=33-	=33-	=33-	=33-	=33-
2G\)	.	2G\	.	.	8Bn\	e-	8d\	-o	.	2r	.
.	.	.	.	.	8B\	-ti-	8d\	Pi-	.	.	.
.	.	.	.	.	8B\	-am	2g\	.	.	.	.
.	.	.	.	.	8B\	pro	.	.	.	.	.
!LO:TX:t=P:problem:kreska pseudotaktowa	!	!LO:TX:t=P:problem:kreska pseudotaktowa	!	!	!LO:TX:t=P:problem:kreska pseudotaktowa	!	!	!	!	!	!
2A\	.	2A\)	.	.	2c\	No-	.	.	.	4r	.
!	!	!	!	!	!	!	!LO:TX:t=P:problem:kreska pseudotaktowa	!	!	!	!
.	.	.	.	.	.	.	4f#X\	-la-	.	2cc\	Paſ-
!	!	!	!	!	!LO:PB:g=original	!	!	!	!	!	!
8G,<\	-bis	8G,<\	-bis	-ta	2d\	.	2g\	-to	.	.	.
8G\	sub	8G\	ſub	pec-	.	.	.	.	.	.	.
8G\	Pon-	8G\	Pon-	-ca-	.	.	.	.	.	2b\	-sus
8F\	-ti-	8F\	-ti-	.	.	.	.	.	.	.	.
!	!	!	!	!	!LO:TX:t=P:problem:kreska pseudotaktowa	!	!LO:LB:g=original	!	!	!	!
8E,<\	-o	8E\	-o	.	2e\	-bis	4r	.	.	.	.
8E\	Pi-	8E\	Pi-	-ta	.	.	.	.	.	.	.
2A\	-la-	2A\	-la-	mun-	.	.	2c/	paſ-	.	8cc\	et
!	!	!	!	!	!	!	!	!	!	!LO:TX:t=P:problem:kreska pseudotaktowa	!
.	.	.	.	.	.	.	.	.	.	8a\	ſe-
=34-	=34-	=34-	=34-	=34-	=34-	=34-	=34-	=34-	=34-	=34-	=34-
.	.	.	.	.	1r	.	.	.	.	2.e/	-pul-
4G#X\	.	4G#X\	.	.	.	.	2B/	-sus	.	.	.
!LO:TX:t=P:problem:kreska pseudotaktowa	!	!LO:TX:t=P:problem:kreska pseudotaktowa	!	!	!	!	!	!	!	!	!
2A\	-to	2A\	-to	-di	.	.	.	.	.	.	.
!	!	!	!	!	!	!	!	!	!	!LO:TX:t=P:problem:kreska pseudotaktowa	!
.	.	.	.	.	.	.	8c/	et	.	4f#X/	-tus
!	!	!	!	!	!	!	!LO:TX:t=P:problem:kreska pseudotaktowa	!	!	!	!
.	.	.	.	.	.	.	8A/	ſe-	.	.	.
!LO:TX:t=P:problem:kreska pseudotaktowa	!	!	!	!	!	!	!	!	!	!	!
1r	.	1r	.	.	2G/	paſ-	4B/	-pul-	.	8g/	eſt
.	.	.	.	.	.	.	.	.	.	8g/	ſub
.	.	.	.	.	.	.	2d\	.	.	8g/	Pon-
.	.	.	.	.	.	.	.	.	.	8f#y/	-ti-
!	!	!	!	!	!LO:TX:t=P:problem:kreska pseudotaktowa	!	!	!	!	!	!
.	.	.	.	.	2A/	-sus	.	.	.	8e/	-o
.	.	.	.	.	.	.	.	.	.	8e/	Pi-
!	!	!	!	!	!	!	!LO:TX:t=P:problem:kreska pseudotaktowa	!	!	!	!
.	.	.	.	.	.	.	4c#X\	-tus	.	2a\	-la-
=35-	=35-	=35-	=35-	=35-	=35-	=35-	=35-	=35-	=35-	=35-	=35-
2r	.	2r	.	.	2B\	et	2d\	eſt	.	.	.
.	.	.	.	.	.	.	.	.	.	4g#X\	.
!	!	!	!	!	!LO:TX:t=P:problem:kreska pseudotaktowa	!	!LO:TX:t=P:problem:kreska pseudotaktowa	!	!	!	!
8r	.	8r	.	.	2c\	Se-	2e\	paſ-	.	4a\	-to
8A\	sub	8A\	ſub	mi-	.	.	.	.	.	.	.
8A\	Pon-	8A\	Pon-	-se-	.	.	.	.	.	2cc\	paſ-
!LO:TX:t=P:problem:kreska pseudotaktowa	!	!LO:TX:t=P:problem:kreska pseudotaktowa	!	!	!	!	!	!	!	!	!
8Gny\	-ti-	8Gny\	-ti-	-re-	.	.	.	.	.	.	.
8F,<\	-o	8F\	-o	-re	4.d\	-pul-	2.g\	-sus	.	.	.
8F\	Pi-	8F\	Pi-	.	.	.	.	.	.	.	.
4G\	-la-	4G\	-la-	.	.	.	.	.	.	2b\	-sus
.	.	.	.	.	8d\	-tus	.	.	.	.	.
4C,</	-to	4C/	-to	no-	4e\	eſt	.	.	.	.	.
*	*	*	*	*	*	*ij	*	*	*	*	*
!LO:TX:t=P:problem:kreska pseudotaktowa	!	!	!	!	!	!	!	!	!	!	!
[4C/	paſ-	2C/	paſ-	-bis.	2c\	paſ-	2e\	et	.	8cc\	et
!	!	!	!	!	!	!	!	!	!	!LO:TX:t=P:problem:kreska pseudotaktowa	!
.	.	.	.	.	.	.	.	.	.	8a\	ſe-
!	!	!	!	!	!	!	!	!	!	!LO:LB:g=original	!
=36-	=36-	=36-	=36-	=36-	=36-	=36-	=36-	=36-	=36-	=36-	=36-
4C/]	.	.	.	.	.	.	.	.	.	2.gny/	-pul-
2BB/	-s(us)	2BB/	-sus	.	2G/	-sus	2d\	Se-	.	.	.
!	!	!	!	!	!	!	!	!	!	!LO:TX:t=P:problem:kreska pseudotaktowa	!
8C/	et	8C/	et	.	8G/	et	8e\	-pul-	.	4e/	.
!LO:TX:t=P:problem:kreska pseudotaktowa	!	!LO:TX:t=P:problem:kreska pseudotaktowa	!	!	!LO:TX:t=P:problem:kreska pseudotaktowa	!	!LO:TX:t=P:problem:kreska pseudotaktowa	!	!	!	!
8C/	ſe-	8EE/	ſe-	.	8G/	Se-	8cny\	.	.	.	.
2.G\	-pul-	2.GG/	-pul-	.	2.G/	-pul-	4B/	.	.	2.d/	.
.	.	.	.	.	.	.	2c/	.	.	.	.
!LO:TX:t=P:problem:kreska pseudotaktowa	!	!	!	!	!	!	!	!	!	!	!
4GG/	-t(us)	4GG/	-tus	.	4G/	-tus	4B/	-tus	.	4d/	-tus
=37-	=37-	=37-	=37-	=37-	=37-	=37-	=37-	=37-	=37-	=37-	=37-
0Cl;	est.	0Cl;;	eſt	.	0Gl;;	eſt	0cl;;	eſt	.	0el;;	eſt
*	*	*	*	*	*	*Xij	*	*	*	*	*
!LO:LB:g=original	!	!LO:LB:g=original	!	!	!	!	!	!	!	!	!
=38||	=38||	=38||	=38||	=38||	=38||	=38||	=38||	=38||	=38||	=38||	=38||
*M3/2	*	*M3/2	*	*	*M3/2	*	*M3/2	*	*	*M3/2	*
!	!	!LO:TX:t=P:problem:inną ręką dopisany tekst: Osanna in excelsis	!	!	!	!	!LO:TX:t=P:problem:inną ręką podpisany tekst: Osanna in excelſis	!	!	!	!
2C/	Et	2C/	Et	O-	2c\	Et	2e\	Et	2. O-	2g\	Et
!	!	!LO:SIC:v:s=2BB/	!	!	!	!	!	!	!	!	!
2BB/	re-	2C/	re-	-san-	2c\	re-	2e\	re-	-san-	2g\	re-
!LO:TX:t=P:problem:kreska pseudotaktowa	!	!LO:TX:t=P:problem:kreska pseudotaktowa	!	!	!LO:TX:t=P:problem:kreska pseudotaktowa	!	!LO:TX:t=P:problem:kreska pseudotaktowa	!	!	!LO:TX:t=P:problem:kreska pseudotaktowa	!
2AA/	-sur-	2AA/	-ſur-	-na	2c\	-ſur-	2f#X\	-ſur-	-na	2a\	-ſur-
=39-	=39-	=39-	=39-	=39-	=39-	=39-	=39-	=39-	=39-	=39-	=39-
1GG	-re-	1GG	-re-	in	1d	-re-	1g	-re-	in	1b	-re-
!LO:TX:t=P:problem:kreska pseudotaktowa	!	!LO:TX:t=P:problem:kreska pseudotaktowa	!	!	!LO:TX:t=P:problem:kreska pseudotaktowa	!	!LO:TX:t=P:problem:kreska pseudotaktowa	!	!	!LO:TX:t=P:problem:kreska pseudotaktowa	!
2GG/	-xit	2GG/	-xit	ex-	2d\	-xit	2g\	-xit	ex-	2b\	-xit
!	!	!	!	!	!LO:LB:g=original	!	!	!	!	!	!
=40-	=40-	=40-	=40-	=40-	=40-	=40-	=40-	=40-	=40-	=40-	=40-
2.C/	ter-	2.C/	ter-	-cel-	2.c\	ter-	2.e\	ter-	-cel-	2.g\	ter-
4C/	-ti-	4C/	-ti-	.	4c\	-ti-	4e\	-ti-	-ſis	4g\	-ti-
!LO:TX:t=P:problem:kreska pseudotaktowa	!	!LO:TX:t=P:problem:kreska pseudotaktowa	!	!	!LO:TX:t=P:problem:kreska pseudotaktowa	!	!LO:TX:t=P:problem:kreska pseudotaktowa	!	!	!LO:TX:t=P:problem:kreska pseudotaktowa	!
2C/	-â	2C/	-a	.	2c\	-a	2e\	-a	.	2g\	-a
!	!	!	!	!	!	!	!LO:LB:g=original	!	!	!	!
=41-	=41-	=41-	=41-	=41-	=41-	=41-	=41-	=41-	=41-	=41-	=41-
2F\	di-	2FF/	di-	.	2c\	di-	2fny\	di-	.	2a\	di-
2F\	-e	2FF,</	-e	-sis	2c\	-e	2f\	-e	.	2a\	-e
!LO:TX:t=P:problem:kreska pseudotaktowa	!	!LO:TX:t=P:problem:kreska pseudotaktowa	!	!	!LO:TX:t=P:problem:kreska pseudotaktowa	!	!LO:TX:t=P:problem:kreska pseudotaktowa	!	!	!LO:TX:t=P:problem:kreska pseudotaktowa	!
2F\	Se-	2F\	Se-	.	2c\	ſe-	2f\	ſe-	.	2a\	ſe-
=42-	=42-	=42-	=42-	=42-	=42-	=42-	=42-	=42-	=42-	=42-	=42-
1C	-cun-	1C	-cun-	.	1c	-cun-	1e	-cun-	.	1g	-cun-
!LO:TX:t=P:problem:kreska pseudotaktowa	!	!LO:TX:t=P:problem:kreska pseudotaktowa	!	!	!LO:TX:t=P:problem:kreska pseudotaktowa	!	!LO:TX:t=P:problem:kreska pseudotaktowa	!	!	!LO:TX:t=P:problem:kreska pseudotaktowa	!
2D\	-d(um)	2D\	-dum	.	2A/	-dum	2d\	-dum	.	2f#X/	-dum
=43-	=43-	=43-	=43-	=43-	=43-	=43-	=43-	=43-	=43-	=43-	=43-
2E\	Scr(i-	2E\	ſcri-	.	2G/	ſcri-	2c#X/	ſcri-	.	1g	ſcri-
!LO:TX:t=P:problem:kreska pseudotaktowa	!	!LO:TX:t=P:problem:kreska pseudotaktowa	!	!	!LO:TX:t=P:problem:kreska pseudotaktowa	!	!	!	!	!	!
1D	-ptu)-	1D	-ptu-	.	1A	-ptu-	1d	-ptu-	.	.	.
!	!	!	!	!	!	!	!	!	!	!LO:TX:t=P:problem:kreska pseudotaktowa	!
.	.	.	.	.	.	.	.	.	.	2f#X/	-ptu-
=44-	=44-	=44-	=44-	=44-	=44-	=44-	=44-	=44-	=44-	=44-	=44-
2GG,</	-ras.	2GG/	-ras	.	1B	-ras	1d	-ras	.	2g\	-ras
2G\	et	2G\	et	.	.	.	.	.	.	2g\	et
!LO:TX:t=P:problem:kreska pseudotaktowa	!	!LO:TX:t=P:problem:kreska pseudotaktowa	!	!	!LO:TX:t=P:problem:kreska pseudotaktowa	!	!LO:TX:t=P:problem:kreska pseudotaktowa	!	!	!LO:TX:t=P:problem:kreska pseudotaktowa	!
2E\	a-	2E\	a-	.	2r	.	2r	.	.	2g\	a-
!	!	!	!	!	!	!	!	!	!	!LO:LB:g=original	!
=45-	=45-	=45-	=45-	=45-	=45-	=45-	=45-	=45-	=45-	=45-	=45-
(4F\	-scen-	4F\	-ſcen-	.	0.r	.	2rf	.	.	2a\	-scen-
4G\	.	4G\	.	.	.	.	.	.	.	.	.
4A\	.	4A\	.	.	.	.	2f\	et	.	2a\	-dit
4F\)	.	4F\	.	.	.	.	.	.	.	.	.
!LO:TX:t=P:problem:kreska pseudotaktowa	!	!LO:TX:t=P:problem:kreska pseudotaktowa	!	!	!	!	!LO:TX:t=P:problem:kreska pseudotaktowa	!	!	!LO:TX:t=P:problem:kreska pseudotaktowa	!
2G\	.	2G\	.	.	.	.	2d\	a-	.	2b\	in
=46-	=46-	=46-	=46-	=46-	=46-	=46-	=46-	=46-	=46-	=46-	=46-
1C,<	-dit	1C	-dit	.	.	.	4e\	-ſcen-	.	2cc\	Cae-
.	.	.	.	.	.	.	4f\	.	.	.	.
.	.	.	.	.	.	.	4g\	.	.	2cc\	-lum
.	.	.	.	.	.	.	4e\	.	.	.	.
!LO:TX:t=P:problem:kreska pseudotaktowa	!	!	!	!	!	!	!LO:TX:t=P:problem:kreska pseudotaktowa	!	!	!LO:TX:t=P:problem:kreska pseudotaktowa	!
2BB/	in	2BB/	in	.	.	.	2g\	.	.	2dd\	in
!	!	!LO:LB:g=original	!	!	!	!	!	!	!	!	!
=47-	=47-	=47-	=47-	=47-	=47-	=47-	=47-	=47-	=47-	=47-	=47-
!	!	!	!	!	!	!	!LO:TX:t=P:problem:kreska pseudotaktowa	!	!	!	!
4AA/	cae-	4AA/	Cae-	.	2r	.	1.cny	dit	.	2ee\	Cae-
(4BB/	.	4BB/	.	.	.	.	.	.	.	.	.
4C/	.	4C/	.	.	2r	.	.	.	.	2ee\	-lum
4D/)	.	4D/	.	.	.	.	.	.	.	.	.
!	!	!	!	!	!LO:TX:t=P:problem:kreska pseudotaktowa	!	!	!	!	!LO:TX:t=P:problem:kreska pseudotaktowa	!
4E\	.	4E\	.	.	2e\	Se-	.	.	.	2r	.
!LO:TX:t=P:problem:kreska pseudotaktowa	!	!LO:TX:t=P:problem:kreska pseudotaktowa	!	!	!	!	!	!	!	!	!
4F\	.	4F\	.	.	.	.	.	.	.	.	.
=48-	=48-	=48-	=48-	=48-	=48-	=48-	=48-	=48-	=48-	=48-	=48-
!	!	!	!	!	!	!	!	!	!	!LO:TX:t=P:problem:kreska pseudotaktowa	!
1G	.	1G	.	.	2d\	-det	2B/	in	.	1.r	.
!	!	!	!	!	!LO:TX:t=P:problem:kreska pseudotaktowa	!	!LO:TX:t=P:problem:kreska pseudotaktowa	!	!	!	!
.	.	.	.	.	1c	ad	1A	Cae-	.	.	.
!LO:TX:t=P:problem:kreska pseudotaktowa	!	!LO:TX:t=P:problem:kreska pseudotaktowa	!	!	!	!	!	!	!	!	!
2F#X\	.	2F#X\	.	.	.	.	.	.	.	.	.
=49-	=49-	=49-	=49-	=49-	=49-	=49-	=49-	=49-	=49-	=49-	=49-
1G,<	-lum	1G,<	-lum	.	4B\	dex-	1d	-lum	.	2r	.
.	.	.	.	.	4c\	.	.	.	.	.	.
.	.	.	.	.	4d\	.	.	.	.	2r	.
.	.	.	.	.	4B\	.	.	.	.	.	.
!LO:TX:t=P:problem:kreska pseudotaktowa	!	!LO:TX:t=P:problem:kreska pseudotaktowa	!	!	!	!	!LO:TX:t=P:problem:kreska pseudotaktowa	!	!	!LO:TX:t=P:problem:kreska pseudotaktowa	!
2A\	se-	2A\	ſe-	.	4c\	.	2r	.	.	2cc\	Se-
!	!	!	!	!	!LO:TX:t=P:problem:kreska pseudotaktowa	!	!	!	!	!	!
.	.	.	.	.	4d\	.	.	.	.	.	.
=50-	=50-	=50-	=50-	=50-	=50-	=50-	=50-	=50-	=50-	=50-	=50-
!	!	!	!	!	!	!	!LO:TX:t=P:problem:kreska pseudotaktowa	!	!	!	!
2G\	-det	2G\	-det	.	1e	-te-	1.r	.	.	2b\	-det
!LO:TX:t=P:problem:kreska pseudotaktowa	!	!LO:TX:t=P:problem:kreska pseudotaktowa	!	!	!	!	!	!	!	!LO:TX:t=P:problem:kreska pseudotaktowa	!
1Fny	ad	1Fny	ad	.	.	.	.	.	.	1a	ad
.	.	.	.	.	2d\	-ram	.	.	.	.	.
=51-	=51-	=51-	=51-	=51-	=51-	=51-	=51-	=51-	=51-	=51-	=51-
(4E\	dex-	4E\	dex-	.	1e,<	.	1g	Se-	.	4g\	dex-
4F\	.	4F\	.	.	.	.	.	.	.	4a\	.
4G\	.	4G\	.	.	.	.	.	.	.	4b\	.
4E\	.	4E\	.	.	.	.	.	.	.	4g\	.
!	!	!	!	!	!LO:TX:t=P:problem:kreska pseudotaktowa	!	!LO:TX:t=P:problem:kreska pseudotaktowa	!	!	!	!
4F\	.	4F\	.	.	2d\	ad	2f\	-det	.	4a\	.
!LO:TX:t=P:problem:kreska pseudotaktowa	!	!LO:TX:t=P:problem:kreska pseudotaktowa	!	!	!	!	!	!	!	!LO:TX:t=P:problem:kreska pseudotaktowa	!
4G\)	.	4G\	.	.	.	.	.	.	.	4b\	.
!LO:LB:g=original	!	!	!	!	!	!	!	!	!	!	!
=52-	=52-	=52-	=52-	=52-	=52-	=52-	=52-	=52-	=52-	=52-	=52-
!	!	!	!	!	!	!	!LO:TX:t=P:problem:kreska pseudotaktowa	!	!	!	!
1A	.	1A	.	.	2.c\	dex-	1.e	ad	.	1cc	-te-
.	.	.	.	.	4d\	-te-	.	.	.	.	.
!LO:TX:t=P:problem:kreska pseudotaktowa	!	!LO:TX:t=P:problem:kreska pseudotaktowa	!	!	!LO:TX:t=P:problem:kreska pseudotaktowa	!	!	!	!	!	!
2G#X\	.	2G#X\	-te-	.	2e\	-ram	.	.	.	2b\	.
!	!	!	!	!	!LO:LB:g=original	!	!	!	!	!	!
=53-	=53-	=53-	=53-	=53-	=53-	=53-	=53-	=53-	=53-	=53-	=53-
!	!	!	!	!	!LO:TX:t=P:problem:kreska pseudotaktowa	!	!	!	!	!LO:TX:t=P:problem:kreska pseudotaktowa	!
2.A\	.	2.A\	-ram	.	1.c	Pa-	2.e\	dex-	.	1.a	-ram
4Gny\	-te-	4Gny\	.	.	.	.	4e\	-te-	.	.	.
!LO:TX:t=P:problem:kreska pseudotaktowa	!	!LO:TX:t=P:problem:kreska pseudotaktowa	!	!	!	!	!LO:TX:t=P:problem:kreska pseudotaktowa	!	!	!	!
2F\	-ram	2F\	.	.	.	.	2f\	-ram	.	.	.
=54-	=54-	=54-	=54-	=54-	=54-	=54-	=54-	=54-	=54-	=54-	=54-
2D\	Pa-	2D/	Pa-	.	2d\	.	2f\	Pa-	.	1a	Pa-
!LO:TX:t=P:problem:kreska pseudotaktowa	!	!LO:TX:t=P:problem:kreska pseudotaktowa	!	!	!LO:TX:t=P:problem:kreska pseudotaktowa	!	!LO:TX:t=P:problem:kreska pseudotaktowa	!	!	!	!
1E	.	1E	.	.	1B	.	1e	.	.	.	.
!	!	!	!	!	!	!	!	!	!	!LO:TX:t=P:problem:kreska pseudotaktowa	!
.	.	.	.	.	.	.	.	.	.	2g#X/	.
!	!	!	!	!	!	!	!LO:LB:g=original	!	!	!	!
=55-	=55-	=55-	=55-	=55-	=55-	=55-	=55-	=55-	=55-	=55-	=55-
1AA,<	-tris.	1AA;,<	-tris	.	1c#X,<	-tris	1e,<	-tris	.	1a	-tris
!LO:TX:t=P:problem:kreska pseudotaktowa	!	!LO:TX:t=P:problem:kreska pseudotaktowa	!	!	!LO:TX:t=P:problem:kreska pseudotaktowa	!	!LO:TX:t=P:problem:kreska pseudotaktowa	!	!	!LO:TX:t=P:problem:kreska pseudotaktowa	!
2A\	Et	2A\	et	.	2c#\	et	2e\	et	.	2a\	et
=56-	=56-	=56-	=56-	=56-	=56-	=56-	=56-	=56-	=56-	=56-	=56-
2.Gn\	i-	2.G\	i-	.	2.d\	i-	2.g\	i-	.	2.b\	i-
4G\	-te-	4G\	-te-	.	4d\	-te-	4g\	-te-	.	4b\	-te-
!LO:TX:t=P:problem:kreska pseudotaktowa	!	!LO:TX:t=P:problem:kreska pseudotaktowa	!	!	!LO:TX:t=P:problem:kreska pseudotaktowa	!	!LO:TX:t=P:problem:kreska pseudotaktowa	!	!	!LO:TX:t=P:problem:kreska pseudotaktowa	!
2G\	-ru(m)	2G\	-rum	.	2d\	-rum	2g\	-rum	.	2b\	-rum
!	!	!LO:LB:g=original	!	!	!	!	!	!	!	!LO:LB:g=original	!
=57-	=57-	=57-	=57-	=57-	=57-	=57-	=57-	=57-	=57-	=57-	=57-
2E\	ven-	2E\	Ven-	.	2e\	Ven-	2g\	Ven-	.	2cc\	Ven-
2F\	-tu-	2F\	-tu-	.	2d\	-tu-	2a\	-tu-	.	2cc\	-tu-
!LO:TX:t=P:problem:kreska pseudotaktowa	!	!LO:TX:t=P:problem:kreska pseudotaktowa	!	!	!LO:TX:t=P:problem:kreska pseudotaktowa	!	!LO:TX:t=P:problem:kreska pseudotaktowa	!	!	!LO:TX:t=P:problem:kreska pseudotaktowa	!
2G\	-r(us)	2G\	-rus	.	2d\	-rus	2g\	-rus	.	2b\	-rus
=58-	=58-	=58-	=58-	=58-	=58-	=58-	=58-	=58-	=58-	=58-	=58-
1C	e(st)	1C	eſt	.	1e	eſt	1g,<	eſt	.	1cc,<	eſt
!LO:TX:t=P:problem:kreska pseudotaktowa	!	!LO:TX:t=P:problem:kreska pseudotaktowa	!	!	!LO:TX:t=P:problem:kreska pseudotaktowa	!	!LO:TX:t=P:problem:kreska pseudotaktowa	!	!	!LO:TX:t=P:problem:kreska pseudotaktowa	!
2BB/	cum	2BB/	cum	.	2d\	cum	2g\	cum	.	2dd\	cum
=59-	=59-	=59-	=59-	=59-	=59-	=59-	=59-	=59-	=59-	=59-	=59-
2.D\	glo-	2.D/	glo-	.	2.d\	glo-	2.f\	glo-	.	2.a\	glo-
4D\	-ri-	4D/	-ri-	.	4d\	-ri-	4f\	-ri-	.	4a\	-ri-
!LO:TX:t=P:problem:kreska pseudotaktowa	!	!LO:TX:t=P:problem:kreska pseudotaktowa	!	!	!LO:TX:t=P:problem:kreska pseudotaktowa	!	!LO:TX:t=P:problem:kreska pseudotaktowa	!	!	!LO:TX:t=P:problem:kreska pseudotaktowa	!
2D\	-a	2D/	-a	.	2d\	-a	2f\	-a	.	2a\	-a
=60-	=60-	=60-	=60-	=60-	=60-	=60-	=60-	=60-	=60-	=60-	=60-
2.AA/	ju-	2.AA/	iu-	.	2.cny\	iu-	2.e\	iu-	.	2.a\	iu-
4AA/	-di-	4AA/	-di-	.	4c\	-di-	4e\	-di-	.	4a\	-di-
4AA/	-ca-	4AA/	-ca-	.	4c\	-ca-	4e\	-ca-	.	4a\	-ca-
!LO:TX:t=P:problem:kreska pseudotaktowa	!	!LO:TX:t=P:problem:kreska pseudotaktowa	!	!	!LO:TX:t=P:problem:kreska pseudotaktowa	!	!LO:TX:t=P:problem:kreska pseudotaktowa	!	!	!LO:TX:t=P:problem:kreska pseudotaktowa	!
4AA/	-re	4AA/	-re	.	4c\	-re	4e\	-re	.	4a\	-re
=61-	=61-	=61-	=61-	=61-	=61-	=61-	=61-	=61-	=61-	=61-	=61-
2E\	vi-	2E\	Vi-	.	2B\	Vi-	2e\	Vi-	.	2g#X/	Vi-
2E\	-vos	2E\	-uos	.	2B\	-uos	2e\	-uos	.	2g#/	-uos
!LO:TX:t=P:problem:kreska pseudotaktowa	!	!LO:TX:t=P:problem:kreska pseudotaktowa	!	!	!LO:TX:t=P:problem:kreska pseudotaktowa	!	!LO:TX:t=P:problem:kreska pseudotaktowa	!	!	!LO:TX:t=P:problem:kreska pseudotaktowa	!
2r	.	2r	.	.	2r	.	2r	.	.	2r	.
=62-	=62-	=62-	=62-	=62-	=62-	=62-	=62-	=62-	=62-	=62-	=62-
*	*ij	*	*	*	*	*	*	*	*	*	*
2.C/	ju-	2.C/	iu-	.	2.e\	iu-	2.g\	iu-	.	2.cc\	iu-
4C/	-di-	4C/	-di-	.	4e\	-di-	4g\	-di-	.	4cc\	-di-
4C/	-ca-	4C/	-ca-	.	4e\	-ca-	4g\	-ca-	.	4cc\	-ca-
!LO:TX:t=P:problem:kreska pseudotaktowa	!	!LO:TX:t=P:problem:kreska pseudotaktowa	!	!	!LO:TX:t=P:problem:kreska pseudotaktowa	!	!LO:TX:t=P:problem:kreska pseudotaktowa	!	!	!LO:TX:t=P:problem:kreska pseudotaktowa	!
4C/	-re	4C/	-re	.	4e\	-re	4g\	-re	.	4cc\	-re
!	!	!	!	!	!LO:LB:g=original	!	!	!	!	!	!
=63-	=63-	=63-	=63-	=63-	=63-	=63-	=63-	=63-	=63-	=63-	=63-
2G\	vi-	2G\	Vi-	.	2d\	Vi-	2g\	Vi-	.	2b\	Vi-
2G,<\	-vos	2G\	-uos	.	2d\	-uos	2g\	-uos	.	2b\	-uos
*	*Xij	*	*	*	*	*	*	*	*	*	*
!LO:TX:t=P:problem:kreska pseudotaktowa	!	!LO:TX:t=P:problem:kreska pseudotaktowa	!	!	!LO:TX:t=P:problem:kreska pseudotaktowa	!	!LO:TX:t=P:problem:kreska pseudotaktowa	!	!	!LO:TX:t=P:problem:kreska pseudotaktowa	!
2F#X\	et	2F#X\	et	.	2d\	et	2a\	et	.	2dd\	et
=64-	=64-	=64-	=64-	=64-	=64-	=64-	=64-	=64-	=64-	=64-	=64-
1G	mor-	1G	Mor-	.	1d	Mor-	1g	Mor-	.	1b	Mor-
!LO:TX:t=P:problem:kreska pseudotaktowa	!	!LO:TX:t=P:problem:kreska pseudotaktowa	!	!	!LO:TX:t=P:problem:kreska pseudotaktowa	!	!LO:TX:t=P:problem:kreska pseudotaktowa	!	!	!LO:TX:t=P:problem:kreska pseudotaktowa	!
2A\	-tu-	2A\	-tu-	.	2c#X\	-tu-	2e\	-tu-	.	2a\	-tu-
!	!	!	!	!	!	!	!LO:LB:g=original	!	!	!	!
=65-	=65-	=65-	=65-	=65-	=65-	=65-	=65-	=65-	=65-	=65-	=65-
2D,<\	-os	2D/	-os	.	2d,<\	-os	2f,<\	-os	.	2a,<\	-os
2D\	Cu-	2D/	Cu-	.	2d\	Cu-	2f\	cu-	.	2a\	Cu-
!LO:TX:t=P:problem:kreska pseudotaktowa	!	!LO:TX:t=P:problem:kreska pseudotaktowa	!	!	!LO:TX:t=P:problem:kreska pseudotaktowa	!	!LO:TX:t=P:problem:kreska pseudotaktowa	!	!	!LO:TX:t=P:problem:kreska pseudotaktowa	!
2Fny\	-j(us)	2Fny\	-ius	.	2cny\	-ius	2f\	-ius	.	2a\	-ius
!	!	!	!	!	!	!	!	!	!	!LO:LB:g=original	!
=66-	=66-	=66-	=66-	=66-	=66-	=66-	=66-	=66-	=66-	=66-	=66-
2C/	Re-	2C/	re-	.	2c\	Re-	2e\	re-	.	2gny/	Re-
2C/	-gni	2C/	-gni	.	2c\	-gni	2e,<\	-gni	.	2g/	-gni
!LO:TX:t=P:problem:kreska pseudotaktowa	!	!LO:TX:t=P:problem:kreska pseudotaktowa	!	!	!LO:TX:t=P:problem:kreska pseudotaktowa	!	!LO:TX:t=P:problem:kreska pseudotaktowa	!	!	!LO:TX:t=P:problem:kreska pseudotaktowa	!
2D\	n(on)	2D/	Non	.	2A/	Non	2f\	Non	.	2dd\	Non
!LO:LB:g=original	!	!	!LO:LB:g=original	!	!	!	!	!	!	!	!
=67-	=67-	=67-	=67-	=67-	=67-	=67-	=67-	=67-	=67-	=67-	=67-
(2.E\	e-	2.E\	e-	.	1e	E-	1.g	e-	.	1.b	e-
4F\	.	4F\	.	.	.	.	.	.	.	.	.
!LO:TX:t=P:problem:kreska pseudotaktowa	!	!LO:TX:t=P:problem:kreska pseudotaktowa	!	!	!LO:TX:t=P:problem:kreska pseudotaktowa	!	!	!	!	!	!
2G\)	.	2G\	.	.	2d\	.	.	.	.	.	.
=68-	=68-	=68-	=68-	=68-	=68-	=68-	=68-	=68-	=68-	=68-	=68-
2A,<\	-rit	2A\	-rit	.	2c\	-rit	2f#X\	-rit	.	1cc	-rit
1G	Fi-	1G	fi-	.	1d	fi-	1g	fi-	.	.	.
.	.	.	.	.	.	.	.	.	.	2b\	fi-
=69-	=69-	=69-	=69-	=69-	=69-	=69-	=69-	=69-	=69-	=69-	=69-
*M2/1	*	*M2/1	*	*	*M2/1	*	*M2/1	*	*	*M2/1	*
*met(C)	*	*met(C)	*	*	*met(C)	*	*met(C)	*	*	*met(C)	*
!LO:TX:t=P:problem:kreska pseudotaktowa	!	!LO:TX:t=P:problem:kreska pseudotaktowa	!	!	!LO:TX:t=P:problem:kreska pseudotaktowa	!	!LO:TX:t=P:problem:kreska pseudotaktowa	!	!	!	!
1C	-nis.	1C	-nis	.	1e	-nis	1g	-nis	.	2cc\	-nis
.	.	.	.	.	.	.	.	.	.	4r	.
.	.	.	.	.	.	.	.	.	.	2g/	Et
0r	.	0r	.	.	2.c\	Et	0r	.	.	.	.
.	.	.	.	.	.	.	.	.	.	4e/	in
.	.	.	.	.	.	.	.	.	.	4g/	Spi-
!	!	!	!	!	!LO:TX:t=P:problem:kreska pseudotaktowa	!	!	!	!	!	!
.	.	.	.	.	4A/	in	.	.	.	8fny/	-ri-
!	!	!	!	!	!	!	!	!	!	!LO:TX:t=P:problem:kreska pseudotaktowa	!
.	.	.	.	.	.	.	.	.	.	8f/	-tum
=70-	=70-	=70-	=70-	=70-	=70-	=70-	=70-	=70-	=70-	=70-	=70-
.	.	.	.	.	4c\	ſpi-	.	.	.	4e/	ſan-
.	.	.	.	.	8B\	-ri-	.	.	.	4d/	-ctum
.	.	.	.	.	8B\	-tum	.	.	.	.	.
.	.	.	.	.	4A/	San-	.	.	.	(8e/	Do-
.	.	.	.	.	.	.	.	.	.	8f/)	.
!	!	!	!	!	!LO:TX:t=P:problem:kreska pseudotaktowa	!	!	!	!	!	!
.	.	.	.	.	4G/	-ctum	.	.	.	2g/	-mi-
2r	.	2r	.	.	4.A/	D(o-	4r	.	.	.	.
.	.	.	.	.	.	.	8c/	et	.	4f#X/	.
.	.	.	.	.	8A/	-mi)-	8c/	Vi-	.	.	.
!	!	!	!	!	!LO:TX:t=P:problem:kreska pseudotaktowa	!	!	!	!	!	!
4r	.	4r	.	.	2G/	-num	(8B/L	-ui-	.	4g\	-num
.	.	.	.	.	.	.	8c/)	.	.	.	.
!	!	!	!	!	!	!	!	!	!	!LO:TX:t=P:problem:kreska pseudotaktowa	!
8G\	et	8G\	et	.	.	.	(8d/	-fi-	.	4g\	et
!LO:TX:t=P:problem:kreska pseudotaktowa	!	!LO:TX:t=P:problem:kreska pseudotaktowa	!	!	!	!	!LO:TX:t=P:problem:kreska pseudotaktowa	!	!	!	!
8G\	vi-	8G\	Vi-	.	.	.	8B/J)	.	.	.	.
!	!	!	!	!	!LO:LB:g=original	!	!	!	!	!	!
=71-	=71-	=71-	=71-	=71-	=71-	=71-	=71-	=71-	=71-	=71-	=71-
8F\L	-vi-	8F\L	-ui-	.	4r	.	4c\	.	.	2a\	ui-
8G\	.	8G\	.	.	.	.	.	.	.	.	.
8A\	.	8A\	.	.	8c\	et	4fny\	.	.	.	.
8F\J	.	8F\J	.	.	8c\	Vi-	.	.	.	.	.
!	!	!	!	!	!	!	!LO:TX:t=P:problem:kreska pseudotaktowa	!	!	!LO:TX:t=P:problem:kreska pseudotaktowa	!
4.G\	.	4.G\	.	.	8B\L	-ui-	2d\	-can-	.	2b\	-ui-
.	.	.	.	.	8c\	.	.	.	.	.	.
.	.	.	.	.	8d\	-fi-	.	.	.	.	.
!LO:TX:t=P:problem:kreska pseudotaktowa	!	!LO:TX:t=P:problem:kreska pseudotaktowa	!	!	!LO:TX:t=P:problem:kreska pseudotaktowa	!	!	!	!	!	!
8G\	-fi-	8G\	-fi-	.	8B\J	.	.	.	.	.	.
4F\	-can-	4F\	-can-	.	8A\L	-can-	4f\	.	.	2cc\	-fi-
.	.	.	.	.	8B\J	.	.	.	.	.	.
4A\	.	4A\	.	.	2c\	.	4e\	.	.	.	.
!LO:TX:t=P:problem:kreska pseudotaktowa	!	!LO:TX:t=P:problem:kreska pseudotaktowa	!	!	!	!	!LO:TX:t=P:problem:kreska pseudotaktowa	!	!	!LO:TX:t=P:problem:kreska pseudotaktowa	!
2G\	.	2G\	.	.	.	.	2g\	.	.	2dd\	-can-
!	!	!	!	!	!LO:TX:t=P:problem:kreska pseudotaktowa	!	!	!	!	!	!
.	.	.	.	.	4B\	.	.	.	.	.	.
=72-	=72-	=72-	=72-	=72-	=72-	=72-	=72-	=72-	=72-	=72-	=72-
!LO:TX:t=P:problem:kreska pseudotaktowa	!	!LO:TX:t=P:problem:kreska pseudotaktowa	!	!	!	!	!	!	!	!	!
1C	-tem	1C	-tem	.	2.c\	-tem	4g,\	-tem	.	2ee\	-tem
.	.	.	.	.	.	.	4.c\	qui	.	.	.
!	!	!	!	!	!	!	!	!	!	!LO:LB:g=original	!
.	.	.	.	.	.	.	.	.	.	4ee\	qui
.	.	.	.	.	.	.	8d\L	.	.	.	.
!	!	!	!	!	!	!	!	!	!	!LO:TX:t=P:problem:kreska pseudotaktowa	!
.	.	.	.	.	4.G\	qui	8e\	.	.	4ee\	ex
!	!	!	!	!	!	!	!LO:TX:t=P:problem:kreska pseudotaktowa	!	!	!	!
.	.	.	.	.	.	.	8f\J	.	.	.	.
2r	.	2r	.	.	.	.	4g\	.	.	1.dd	Pa-
.	.	.	.	.	8A\	.	.	.	.	.	.
.	.	.	.	.	8B\L	.	4d\	ex	.	.	.
.	.	.	.	.	8c\J	.	.	.	.	.	.
!	!	!	!	!	!	!	!LO:TX:t=P:problem:kreska pseudotaktowa	!	!	!	!
4r	.	4r	.	.	4d\	.	[2f\	Pa-	.	.	.
!LO:TX:t=P:problem:kreska pseudotaktowa	!	!LO:TX:t=P:problem:kreska pseudotaktowa:między nutą a kropką	!	!	!LO:TX:t=P:problem:kreska pseudotaktowa	!	!	!	!	!	!
[<4D\	Qui	4.D\	qui	.	4A/	ex	.	.	.	.	.
=73-	=73-	=73-	=73-	=73-	=73-	=73-	=73-	=73-	=73-	=73-	=73-
!LO:N:xstem:cue	!	!	!	!	!	!	!LO:N:xstem:cue	!	!	!	!
8D\]	.	.	.	.	2A/	Pa-	4f\]	.	.	.	.
8E\L	.	8E\L	.	.	.	.	.	.	.	.	.
8F\	.	8F\	.	.	.	.	4f\	-tre	.	.	.
8G\J	.	8G\J	.	.	.	.	.	.	.	.	.
!	!	!	!	!	!	!	!	!	!	!LO:TX:t=P:problem:kreska pseudotaktowa	!
4A\	.	4A\	.	.	4A/	-tre	4.e\	Fi-	.	2cc\	-tre
!LO:TX:t=P:problem:kreska pseudotaktowa	!	!LO:TX:t=P:problem:kreska pseudotaktowa	!	!	!LO:TX:t=P:problem:kreska pseudotaktowa:między nutą a kropką	!	!	!	!	!	!
4E\	ex	4E\	ex	.	4.G/	qui	.	.	.	.	.
!	!	!	!	!	!	!	!LO:TX:t=P:problem:kreska pseudotaktowa	!	!	!	!
.	.	.	.	.	.	.	8e\	-lio-	.	.	.
2G\	P(a-	2G\	Pa-	.	.	.	2d,<\	-q(ue)	.	4.b\	Fi-
.	.	.	.	.	8A/L	.	.	.	.	.	.
.	.	.	.	.	8B/	.	.	.	.	.	.
.	.	.	.	.	8c/J	.	.	.	.	8b\	-lio-
!LO:TX:t=P:problem:kreska pseudotaktowa	!	!LO:TX:t=P:problem:kreska pseudotaktowa	!	!	!	!	!	!	!	!LO:TX:t=P:problem:kreska pseudotaktowa	!
2D/	-t)re	2D/	-tre	.	4d\	.	4f\	pro-	.	2a\	-q(ue)
!	!	!	!	!	!LO:TX:t=P:problem:kreska pseudotaktowa	!	!LO:TX:t=P:problem:kreska pseudotaktowa	!	!	!	!
.	.	.	.	.	4d\	ex	4f\	-ce-	.	.	.
=74-	=74-	=74-	=74-	=74-	=74-	=74-	=74-	=74-	=74-	=74-	=74-
!	!	!	!	!	!	!	!LO:TX:t=P:problem:kreska pseudotaktowa	!	!	!	!
4.E\	Fi-	4.E\	Fi-	.	4B\	Pa-	1e	.	.	1g	pro-
.	.	.	.	.	4B\	-tre	.	.	.	.	.
8D\	-li-	8E\	-li-	.	.	.	.	.	.	.	.
!	!	!LO:LB:g=original	!	!	!	!	!	!	!	!	!
!LO:TX:t=P:problem:kreska pseudotaktowa	!	!LO:TX:t=P:problem:kreska pseudotaktowa	!	!	!	!	!	!	!	!	!
2C/	-o-	2C/	-o-	.	4.c\	Fi-	.	.	.	.	.
!	!	!	!	!	!LO:TX:t=P:problem:kreska pseudotaktowa	!	!	!	!	!	!
.	.	.	.	.	8c\	-li-	.	.	.	.	.
!	!	!	!	!	!	!	!LO:TX:t=P:problem:kreska pseudotaktowa	!	!	!	!
4.D\	-q(ue)	4.D\	-q(ue)	.	2A/	-o-	1d	-dit	.	1fny	-ce-
8E\	.	8E\	.	.	.	.	.	.	.	.	.
4F\	.	4F\	.	.	8A/	-q(ue)	.	.	.	.	.
.	.	.	.	.	8A/	pro-	.	.	.	.	.
!LO:TX:t=P:problem:kreska pseudotaktowa	!	!LO:TX:t=P:problem:kreska pseudotaktowa	!	!	!	!	!	!	!	!	!
4G\	pro-	4G\	pro-	.	2d\	-ce-	.	.	.	.	.
=75-	=75-	=75-	=75-	=75-	=75-	=75-	=75-	=75-	=75-	=75-	=75-
!	!	!	!	!	!	!	!	!	!	!LO:TX:t=P:problem:kreska pseudotaktowa	!
2A\	-ce-	1A	-ce-	.	.	.	2r	.	.	1e	.
.	.	.	.	.	8c#X\L	.	.	.	.	.	.
.	.	.	.	.	8B\J	.	.	.	.	.	.
!	!	!	!	!	!LO:LB:g=original	!	!	!	!	!	!
!LO:TX:t=P:problem:kreska pseudotaktowa	!	!	!	!	!LO:TX:t=P:problem:kreska pseudotaktowa	!	!LO:TX:t=P:problem:kreska pseudotaktowa:między nutą a kropką	!	!	!	!
2AA/	.	.	.	.	2c#X\	.	2.A/	Qui	.	.	.
2D,\	-dit	2D/	-dit	.	2d\	-dit	.	.	.	2f/	-dit
.	.	.	.	.	.	.	4A/	cum	.	.	.
!LO:TX:t=P:problem:kreska pseudotaktowa	!	!LO:TX:t=P:problem:kreska pseudotaktowa:między nutą a kropką	!	!	!LO:TX:t=P:problem:kreska pseudotaktowa	!	!	!	!	!LO:TX:t=P:problem:kreska pseudotaktowa:między nutą a kropką	!
[<2D\	Qui	2.D/	qui	.	[2A/	qui	1d\	Pa-	.	2.f/	qui
=76-	=76-	=76-	=76-	=76-	=76-	=76-	=76-	=76-	=76-	=76-	=76-
!LO:N:xstem:cue	!	!	!	!	!LO:N:xstem:cue	!	!	!	!	!	!
4D\]	.	.	.	.	4A/]	.	.	.	.	.	.
4D/	cum	4D/	cum	.	4A/	cum	.	.	.	4f/	cum
4A\	P(a-	4A\	Pa-	.	4cny\	Pa-	4.e\	-tre	.	4a\	Pa-
8A,<\	-t)re	8A\	-tre	.	8c\	-tre	.	.	.	8a\	-tre
!LO:TX:t=P:problem:kreska pseudotaktowa	!	!LO:TX:t=P:problem:kreska pseudotaktowa	!	!	!LO:TX:t=P:problem:kreska pseudotaktowa	!	!LO:TX:t=P:problem:kreska pseudotaktowa	!	!	!LO:TX:t=P:problem:kreska pseudotaktowa	!
8A\	et	8A\	et	.	8c\	et	8c\	et	.	8e/	et
!LO:LB:g=original	!	!	!	!	!	!	!	!	!	!	!
4.G\	Fi-	4.G\	Fi-	.	4.B\	Fi-	4.d\	Fi-	.	4.g/	Fi-
8G\	-li-	8G\	-li-	.	8B\	-li-	8d\	-li-	.	8g/	-li-
4C,</	-o	4C/	-o	.	4c\	-o	4e,<\	-o	.	4g/	-o
2F\	si-	2F\	ſi-	.	2c\	ſi-	2f\	ſi-	.	2a\	ſi-
=77-	=77-	=77-	=77-	=77-	=77-	=77-	=77-	=77-	=77-	=77-	=77-
4D\	-mul	4D/	-mul	.	4d\	-mul	4f\	-mul	.	4a\	-mul
4E\	a-	4E\	a-	.	4B\	a-	4e\	a-	.	4g/	a-
!LO:TX:t=P:problem:kreska pseudotaktowa	!	!LO:TX:t=P:problem:kreska pseudotaktowa	!	!	!LO:TX:t=P:problem:kreska pseudotaktowa	!	!LO:TX:t=P:problem:kreska pseudotaktowa	!	!	!LO:TX:t=P:problem:kreska pseudotaktowa	!
4C/	-do-	4C/	-do-	.	4c\	-do-	4e\	-do-	.	4g/	-do-
2D/	-ra-	2D/	-ra-	.	2A/	-ra-	2d\	-ra-	.	2f/	-ra-
4AA,</	-t(ur)	4AA/	-tur	.	4A/	-tur	4c,</	-tur	.	4e/	-tur
!LO:TX:t=P:problem:kreska pseudotaktowa	!	!LO:TX:t=P:problem:kreska pseudotaktowa	!	!	!LO:TX:t=P:problem:kreska pseudotaktowa	!	!LO:TX:t=P:problem:kreska pseudotaktowa	!	!	!LO:TX:t=P:problem:kreska pseudotaktowa	!
4A\	et	4A\	et	.	4A/	et	4c/	et	.	4e/	et
=78-	=78-	=78-	=78-	=78-	=78-	=78-	=78-	=78-	=78-	=78-	=78-
4.F\	con-	4.F\	Con-	.	4.A/	Con-	4.c/	con-	.	4.f/	con-
8F\	-glo-	8F\	-glo-	.	8A/	-glo-	8c/	-glo-	.	8f/	-glo-
4F\	-ri-	4F\	-ri-	.	4A/	-ri-	4c/	-ri-	.	4f/	-ri-
!LO:TX:t=P:problem:kreska pseudotaktowa	!	!LO:TX:t=P:problem:kreska pseudotaktowa	!	!	!LO:TX:t=P:problem:kreska pseudotaktowa	!	!LO:TX:t=P:problem:kreska pseudotaktowa	!	!	!LO:TX:t=P:problem:kreska pseudotaktowa	!
4C/	-fi-	4C/	-fi-	.	4c\	-fi-	4e\	-fi-	.	4g/	-fi-
!	!	!	!	!	!	!	!	!	!	!LO:LB:g=original	!
2G\	-ca-	2G\	-ca-	.	2B\	-ca-	2d\	-ca-	.	2g/	-ca-
!	!	!	!	!	!	!	!LO:LB:g=original	!	!	!	!
4G,<\	-t(ur)	4G\	-tur	.	4B\	-tur	4d\	-tur	.	4g/	-tur
!LO:TX:t=P:problem:kreska pseudotaktowa	!	!LO:TX:t=P:problem:kreska pseudotaktowa:między nutą a kropką	!	!	!LO:TX:t=P:problem:kreska pseudotaktowa:między nutą a kropką	!	!LO:TX:t=P:problem:kreska pseudotaktowa	!	!	!LO:TX:t=P:problem:kreska pseudotaktowa:między nutą a kropką	!
[4D/	qui	4.D\	qui	.	4.d\	qui	[4f\	qui	.	4.a\	qui
=79-	=79-	=79-	=79-	=79-	=79-	=79-	=79-	=79-	=79-	=79-	=79-
!LO:N:xstem:cue	!	!	!	!	!	!	!LO:N:xstem:cue	!	!	!	!
8D/]	.	.	.	.	.	.	8f\]	.	.	.	.
8D\	lo-	8D\	lo-	.	8d\	lo-	8f\	lo-	.	8a\	lo-
8D\	-cu-	8D\	-cu-	.	8d\	-cu-	8f\	-cu-	.	8a\	-cu-
8D\	-t(us)	8D\	-t(us)	.	8d\	-tus	8f\	-tus	.	8a\	-tus
!	!	!LO:LB:g=original	!	!	!	!	!	!	!	!	!
4A,<\	e(st)	4A\	eſt	.	4c\	eſt	4e\	eſt	.	4a\	eſt
!	!	!	!	!	!	!	!	!	!	!LO:TX:t=P:problem:kreska pseudotaktowa:między nutą a kropką	!
2F\	per	2F\	per	.	2c\	per	2f\	per	.	4.a\	per
.	.	.	.	.	.	.	.	.	.	8b\	.
(8E\L	Pro-	4E\	Pro-	.	4e\	Pro-	4g\	Pro-	.	2cc\	Pro-
8F\J)	.	.	.	.	.	.	.	.	.	.	.
!	!	!	!	!	!LO:LB:g=original	!	!	!	!	!	!
!LO:TX:t=P:problem:kreska pseudotaktowa	!	!LO:TX:t=P:problem:kreska pseudotaktowa	!	!	!LO:TX:t=P:problem:kreska pseudotaktowa	!	!LO:TX:t=P:problem:kreska pseudotaktowa	!	!	!	!
2G\	-phe-	2G\	-phe-	.	2d\	-phe-	2g\	-phe-	.	.	.
!	!	!	!	!	!	!	!	!	!	!LO:TX:t=P:problem:kreska pseudotaktowa	!
.	.	.	.	.	.	.	.	.	.	4b\	-phe-
=80-	=80-	=80-	=80-	=80-	=80-	=80-	=80-	=80-	=80-	=80-	=80-
!LO:TX:t=P:problem:kreska pseudotaktowa	!	!LO:TX:t=P:problem:kreska pseudotaktowa	!	!	!LO:TX:t=P:problem:kreska pseudotaktowa	!	!	!	!	!LO:TX:t=P:problem:kreska pseudotaktowa	!
1C	-tas.	1C	-tas.	.	1e	-tas	4g,<\	-tas	.	1cc	-tas
.	.	.	.	.	.	.	4g\	et	.	.	.
.	.	.	.	.	.	.	4g\	V-	.	.	.
!	!	!	!	!	!	!	!LO:TX:t=P:problem:kreska pseudotaktowa	!	!	!	!
.	.	.	.	.	.	.	4g\	-nam	.	.	.
!	!	!LO:TX:t=P:problem:kreska pseudotaktowa	!	!	!	!	!	!	!	!	!
0r	.	0r	.	.	4r	.	4e\	ſan-	.	0r	.
.	.	.	.	.	4c\	et	8e,<\	-ctam	.	.	.
.	.	.	.	.	.	.	8f\	Ca-	.	.	.
.	.	.	.	.	4c\	V-	4g\	-tho-	.	.	.
!	!	!	!	!	!LO:TX:t=P:problem:kreska pseudotaktowa	!	!LO:TX:t=P:problem:kreska pseudotaktowa	!	!	!	!
.	.	.	.	.	4c\	-nam	4e\	-li-	.	.	.
=81-	=81-	=81-	=81-	=81-	=81-	=81-	=81-	=81-	=81-	=81-	=81-
.	.	.	.	.	4A\	ſan-	4f\	-cam	.	.	.
.	.	.	.	.	8A\	-ctam	4f\	et	.	.	.
.	.	.	.	.	8B\	Ca-	.	.	.	.	.
.	.	.	.	.	4c\	-tho-	4e\	a-	.	.	.
!	!	!	!	!	!LO:TX:t=P:problem:kreska pseudotaktowa	!	!LO:TX:t=P:problem:kreska pseudotaktowa	!	!	!	!
.	.	.	.	.	4A\	-li-	4e\	-po-	.	.	.
!	!	!	!	!	!	!	!	!	!	!LO:TX:t=P:problem:kreska pseudotaktowa	!
4r	.	4r	.	.	4B\	-cam	8d\	-ſto-	.	1r	.
.	.	.	.	.	.	.	8d\	-li-	.	.	.
4G\	Con-	4G\	Con-	.	4B\	et	8g\	-cam	.	.	.
.	.	.	.	.	.	.	8f\	Ec-	.	.	.
4.A\	-fi-	4.A\	-fi-	.	4c\	a-	(8e\L	-cle-	.	.	.
.	.	.	.	.	.	.	8d\	.	.	.	.
!	!	!	!	!	!LO:TX:t=P:problem:kreska pseudotaktowa	!	!	!	!	!	!
.	.	.	.	.	4c\	-po-	8e\)	.	.	.	.
!LO:TX:t=P:problem:kreska pseudotaktowa	!	!LO:TX:t=P:problem:kreska pseudotaktowa	!	!	!	!	!LO:TX:t=P:problem:kreska pseudotaktowa	!	!	!	!
8A\	-te-	8A\	-te-	.	.	.	8c\J	.	.	.	.
=82-	=82-	=82-	=82-	=82-	=82-	=82-	=82-	=82-	=82-	=82-	=82-
4G,<\	-or	4G,<\	-or	.	8B\	-ſto-	4d\	.	.	4r	.
.	.	.	.	.	8B\	-li-	.	.	.	.	.
4E\	u-	4E\	V-	.	8e\	-cam	4c\	.	.	4g\	Con-
.	.	.	.	.	8d\	.	.	.	.	.	.
4F,<\	-nu(m)	4F\	-num	.	8c\L	Ec-	4.f\	.	.	4.a\	-fi-
.	.	.	.	.	8A\J	.	.	.	.	.	.
!LO:TX:t=P:problem:kreska pseudotaktowa	!	!LO:TX:t=P:problem:kreska pseudotaktowa	!	!	!	!	!	!	!	!	!
4F\	bap-	4F\	bap-	.	2c\	-cle-	.	.	.	.	.
!	!	!	!	!	!	!	!LO:TX:t=P:problem:kreska pseudotaktowa	!	!	!LO:TX:t=P:problem:kreska pseudotaktowa	!
.	.	.	.	.	.	.	8f\	-si-	.	8a\	-te-
!	!	!	!	!	!	!	!LO:LB:g=original	!	!	!	!
2G\	-ti-	2G\	-ti-	.	.	.	4d,<\	-am	.	4g/	-or
.	.	.	.	.	4B\	-ſi-	4d\	Con-	.	4g/	V-
!LO:TX:t=P:problem:kreska pseudotaktowa	!	!LO:TX:t=P:problem:kreska pseudotaktowa	!	!	!LO:TX:t=P:problem:kreska pseudotaktowa	!	!	!	!	!	!
2C/	-ſma	2C/	-zma	.	2c\	-am	4.e\	-fi-	.	4g/	-num
!	!	!	!	!	!	!	!	!	!	!LO:TX:t=P:problem:kreska pseudotaktowa	!
.	.	.	.	.	.	.	.	.	.	4g/	bap-
!	!	!	!	!	!	!	!LO:TX:t=P:problem:kreska pseudotaktowa	!	!	!	!
.	.	.	.	.	.	.	8e\	-te-	.	.	.
=83-	=83-	=83-	=83-	=83-	=83-	=83-	=83-	=83-	=83-	=83-	=83-
!	!	!LO:TX:t=P:problem:kreska pseudotaktowa	!	!	!LO:TX:t=P:problem:kreska pseudotaktowa	!	!	!	!	!	!
00r	.	00r	.	.	1r	.	4d,<\	-or	.	4f#X/	-ti-
.	.	.	.	.	.	.	4B/	V-	.	4g/	-zma
!	!	!	!	!	!	!	!	!	!	!LO:TX:t=P:problem:kreska pseudotaktowa	!
.	.	.	.	.	.	.	8c/L	-num	.	2e/	.
.	.	.	.	.	.	.	8A/J	.	.	.	.
.	.	.	.	.	.	.	2c/	bap-	.	.	.
.	.	.	.	.	8G/	in	.	.	.	2d,</	.
.	.	.	.	.	8G/	re-	.	.	.	.	.
.	.	.	.	.	8G/	-miſ-	4B/	-ti-	.	.	.
.	.	.	.	.	8F/	-si-	.	.	.	.	.
!	!	!	!	!	!	!	!LO:TX:t=P:problem:kreska pseudotaktowa	!	!	!	!
.	.	.	.	.	4.E/	-o-	2c,</	-zma	.	8g/	in
.	.	.	.	.	.	.	.	.	.	8g/	re-
.	.	.	.	.	.	.	.	.	.	8g/	-miſ-
!	!	!	!	!	!	!	!	!	!	!LO:TX:t=P:problem:kreska pseudotaktowa	!
.	.	.	.	.	16F/LL	.	.	.	.	8fny/	-si-
!	!	!	!	!	!LO:TX:t=P:problem:kreska pseudotaktowa	!	!	!	!	!	!
.	.	.	.	.	16G/JJ	.	.	.	.	.	.
!	!	!	!	!	!LO:LB:g=original	!	!	!	!	!LO:LB:g=original	!
=84-	=84-	=84-	=84-	=84-	=84-	=84-	=84-	=84-	=84-	=84-	=84-
.	.	.	.	.	4.A/	-nem	8c/	in	.	4.e/	-o-
.	.	.	.	.	.	.	8c/	re-	.	.	.
.	.	.	.	.	.	.	8c/	-miſ-	.	.	.
.	.	.	.	.	8G/	.	8B/	-si-	.	16f/LL	.
.	.	.	.	.	.	.	.	.	.	16g/JJ	.
.	.	.	.	.	4.F/	pec-	4.A/	-o-	.	4.a\	-nem
!	!	!	!	!	!LO:TX:t=P:problem:kreska pseudotaktowa	!	!	!	!	!LO:TX:t=P:problem:kreska pseudotaktowa	!
.	.	.	.	.	8E/	.	16B/LL	.	.	8g/	.
!	!	!	!	!	!	!	!LO:TX:t=P:problem:kreska pseudotaktowa	!	!	!	!
.	.	.	.	.	.	.	16c/JJ	.	.	.	.
.	.	.	.	.	8D/L	-ca-	4d\	.	.	2f/	pec-
.	.	.	.	.	8E/	.	.	.	.	.	.
.	.	.	.	.	8F/	.	4d\	-nem	.	.	.
.	.	.	.	.	8G/J	.	.	.	.	.	.
!	!	!	!	!	!	!	!	!	!	!LO:TX:t=P:problem:kreska pseudotaktowa	!
.	.	.	.	.	4A/	.	8c/	pec-	.	2e/	-ca-
.	.	.	.	.	.	.	8c/	-ca-	.	.	.
!	!	!	!	!	!LO:TX:t=P:problem:kreska pseudotaktowa	!	!	!	!	!	!
.	.	.	.	.	4E/	.	2c/	-to-	.	.	.
=85-	=85-	=85-	=85-	=85-	=85-	=85-	=85-	=85-	=85-	=85-	=85-
4r	.	4r	.	.	2G/	-to-	.	.	.	2d/	-to-
8GG/	et	8GG/	et	.	.	.	4B/	.	.	.	.
8GG/	ex-	8GG/	ex-	.	.	.	.	.	.	.	.
!	!	!	!	!	!LO:TX:t=P:problem:kreska pseudotaktowa	!	!LO:TX:t=P:problem:kreska pseudotaktowa	!	!	!LO:TX:t=P:problem:kreska pseudotaktowa	!
4C/	-pec-	4C/	-pec-	.	2G/	-rum	2c/	-rum	.	2e/	-rum
!LO:TX:t=P:problem:kreska pseudotaktowa	!	!LO:TX:t=P:problem:kreska pseudotaktowa	!	!	!	!	!	!	!	!	!
4C/	-to	4C/	-to	.	.	.	.	.	.	.	.
8AA/	re-	8AA/	re-	.	0A	et	4r	.	.	2ee\	et
8BB/	-ſur-	8BB/	-ſur-	.	.	.	.	.	.	.	.
8C/	-re-	8C/	-re-	.	.	.	8c/	et	.	.	.
8AA/	-cti-	8AA/	-cti-	.	.	.	8c/	ex-	.	.	.
!LO:LB:g=original	!	!	!	!	!	!	!	!	!	!	!
4.D/	-o-	4.D\	-o-	.	.	.	4f\	-pe-	.	1dd\	ex-
!	!	!	!	!	!	!	!LO:TX:t=P:problem:kreska pseudotaktowa	!	!	!	!
.	.	.	.	.	.	.	4f\	-cto	.	.	.
!LO:TX:t=P:problem:kreska pseudotaktowa	!	!LO:TX:t=P:problem:kreska pseudotaktowa	!	!	!	!	!	!	!	!	!
8E,</	-nem	8E\	-nem	.	.	.	.	.	.	.	.
=86-	=86-	=86-	=86-	=86-	=86-	=86-	=86-	=86-	=86-	=86-	=86-
4.F\	mor-	4F\	Mor-	.	.	.	8d\	re-	.	.	.
.	.	.	.	.	.	.	8e\	-ſur-	.	.	.
.	.	4D\	-tu-	.	.	.	8f\	-re-	.	.	.
8D\	-tu-	.	.	.	.	.	8d\	-cti-	.	.	.
!	!	!	!	!	!	!	!LO:LB:g=original	!	!	!LO:TX:t=P:problem:kreska pseudotaktowa	!
4A\	-o-	4A\	-o-	.	.	.	4.e\	-o-	.	2cc\	-pe-
!LO:TX:t=P:problem:kreska pseudotaktowa	!	!LO:TX:t=P:problem:kreska pseudotaktowa	!	!	!	!	!	!	!	!	!
4AA/	.	4AA/	.	.	.	.	.	.	.	.	.
!	!	!	!	!	!	!	!LO:TX:t=P:problem:kreska pseudotaktowa	!	!	!	!
.	.	.	.	.	.	.	8f\	.	.	.	.
!	!	!LO:LB:g=original	!	!	!LO:TX:t=P:problem:kreska pseudotaktowa	!	!	!	!	!	!
4E,<\	-rum	4E,<\	-rum	.	1B	ex-	2g\	-nem	.	4b\	-cto
(4.E\	mor-	4.E\	Mor-	.	.	.	.	.	.	4.g\	re-
.	.	.	.	.	.	.	4g\	.	.	.	.
8F\L	.	8F\	.	.	.	.	.	.	.	8a\	-ſur-
!	!	!	!	!	!	!	!LO:TX:t=P:problem:kreska pseudotaktowa	!	!	!	!
8G\	.	8G\L	.	.	.	.	[4e\	Mor-	.	8b\	-re-
!LO:TX:t=P:problem:kreska pseudotaktowa	!	!LO:TX:t=P:problem:kreska pseudotaktowa	!	!	!	!	!	!	!	!LO:TX:t=P:problem:kreska pseudotaktowa	!
8E\J)	.	8E\J	.	.	.	.	.	.	.	8g\	-cti-
=87-	=87-	=87-	=87-	=87-	=87-	=87-	=87-	=87-	=87-	=87-	=87-
!	!	!	!	!	!	!	!LO:N:xstem:cue	!	!	!	!
4A\	.	4A\	.	.	1c	-pec-	8e\]	.	.	4cc\	-o-
.	.	.	.	.	.	.	8f\	.	.	.	.
4E\	-tu-	4E\	-tu-	.	.	.	8g\	.	.	4cc\	-nem
.	.	.	.	.	.	.	8e\	.	.	.	.
4.F\	-o-	4.F\	-o-	.	.	.	4.a\	-tu-	.	8cc\	Mor-
.	.	.	.	.	.	.	.	.	.	8a\	-tu-
.	.	.	.	.	.	.	.	.	.	2cc\	.
!LO:TX:t=P:problem:kreska pseudotaktowa	!	!LO:TX:t=P:problem:kreska pseudotaktowa	!	!	!	!	!LO:TX:t=P:problem:kreska pseudotaktowa	!	!	!	!
8E\	.	8E\	.	.	.	.	8g\	.	.	.	.
!	!	!	!	!	!LO:TX:t=P:problem:kreska pseudotaktowa	!	!	!	!	!	!
1D	.	1D	.	.	1d	.	1f	-o-	.	.	.
.	.	.	.	.	.	.	.	.	.	8b\	.
.	.	.	.	.	.	.	.	.	.	8a\	.
!	!	!	!	!	!	!	!	!	!	!LO:TX:t=P:problem:kreska pseudotaktowa	!
.	.	.	.	.	.	.	.	.	.	2b\	.
=88-	=88-	=88-	=88-	=88-	=88-	=88-	=88-	=88-	=88-	=88-	=88-
4C,</	-rum	4C,</	-rum	.	2e\	-to	4g,<\	-rum	.	4.cc\	-o-
8C/	et	8C/	et	.	.	.	8g\	et	.	.	.
8C/	ex-	8C/	ex-	.	.	.	8g\	ex-	.	8b\	.
4F\	-pec-	4F\	-pec-	.	4r	.	4f\	-pec-	.	4a\	-rum
!LO:TX:t=P:problem:kreska pseudotaktowa	!	!LO:TX:t=P:problem:kreska pseudotaktowa	!	!	!	!	!LO:TX:t=P:problem:kreska pseudotaktowa	!	!	!	!
4F\	-to	4F\	-to	.	8c\	et	4f\	-to	.	8a\	et
!	!	!	!	!	!LO:TX:t=P:problem:kreska pseudotaktowa	!	!	!	!	!LO:TX:t=P:problem:kreska pseudotaktowa	!
.	.	.	.	.	8c\	ex-	.	.	.	8a\	ex-
8D\	re-	8D\	re-	.	4f\	-pec-	8a\	re-	.	4dd\	-pec-
8E\	-ſur-	8E\	-ſur-	.	.	.	8a\	-ſur-	.	.	.
8F\	-re-	8F\	-re-	.	4f\	-to	8a\	-re-	.	4dd\	-to
8D\	-cti-	8D\	-cti-	.	.	.	8a\	-cti-	.	.	.
!	!	!	!	!	!	!	!LO:TX:t=P:problem:kreska pseudotaktowa	!	!	!LO:LB:g=original	!
4G\	-o-	4G\	-o-	.	8d\	re-	[<2g\	-o-	.	8b\	re-
.	.	.	.	.	8d\	-ſur-	.	.	.	8cc\	-ſur-
!LO:TX:t=P:problem:kreska pseudotaktowa	!	!LO:TX:t=P:problem:kreska pseudotaktowa	!	!	!	!	!	!	!	!	!
4G\	-(ne)m	4G\	-nem	.	8d\	-re-	.	.	.	8dd\	-re-
!	!	!	!	!	!LO:TX:t=P:problem:kreska pseudotaktowa	!	!	!	!	!LO:TX:t=P:problem:kreska pseudotaktowa	!
.	.	.	.	.	8d\	-cti-	.	.	.	8b\	-cti-
=89-	=89-	=89-	=89-	=89-	=89-	=89-	=89-	=89-	=89-	=89-	=89-
!	!	!LO:TX:t=P:problem:chorągiewki ósemek zamienione na belki	!	!	!	!	!LO:N:xstem:cue	!	!	!	!
8E\L	mor-	(8E\L	Mor-	.	4e\	-o-	4g\]	.	.	4cc\	-o-
8F\	.	8F\J)	.	.	.	.	.	.	.	.	.
8G\	.	(8G\L	.	.	4e\	-nem	4g\	-nem	.	4b\	-nem
8E\J	.	8E\J)	.	.	.	.	.	.	.	.	.
4F\	-tu-	4F\	-tu-	.	4c\	Mor-	4f\	Mor-	.	4a\	Mor-
!LO:TX:t=P:problem:kreska pseudotaktowa	!	!LO:TX:t=P:problem:kreska pseudotaktowa	!	!	!LO:TX:t=P:problem:kreska pseudotaktowa	!	!LO:TX:t=P:problem:kreska pseudotaktowa	!	!	!LO:TX:t=P:problem:kreska pseudotaktowa	!
4D\	.	4D\	.	.	4d\	-tu-	4f\	-tu-	.	4b\	-tu-
!	!	!LO:TX:t=P:problem:kreska pseudotaktowa	!	!	!LO:LB:g=original	!	!LO:TX:t=P:problem:kreska pseudotaktowa	!	!	!	!
1E	-o-	1E	-o-	.	4B\	-o-	1e	-o-	.	4g#X/	-o-
.	.	.	.	.	4c\	.	.	.	.	2a\	.
!	!	!	!	!	!LO:TX:t=P:problem:kreska pseudotaktowa	!	!	!	!	!	!
.	.	.	.	.	2B\	.	.	.	.	.	.
!	!	!	!	!	!	!	!	!	!	!LO:TX:t=P:problem:kreska pseudotaktowa	!
.	.	.	.	.	.	.	.	.	.	4g#X/	.
=90-	=90-	=90-	=90-	=90-	=90-	=90-	=90-	=90-	=90-	=90-	=90-
4AA,</	-rum	4AA,</	-rum	.	4c\	-rum	4e,<\	-rum	.	4a\	-rum
4A\	Et	4A\	et	.	4c\	et	4e\	et	.	4a\	Et
4Gn\	Vi-	4G\	Vi-	.	4d\	Vi-	4g\	Vi-	.	4b\	Vi-
8G\	-ta(m)	8G\	-tam	.	8d\	-tam	8g\	-tam	.	8b\	-tam
!LO:TX:t=P:problem:kreska pseudotaktowa	!	!LO:TX:t=P:problem:kreska pseudotaktowa	!	!	!LO:TX:t=P:problem:kreska pseudotaktowa	!	!LO:TX:t=P:problem:kreska pseudotaktowa	!	!	!LO:TX:t=P:problem:kreska pseudotaktowa	!
8G\	Ven-	8G\	VEn-	.	8d\	VEn-	8g\	VEn-	.	8b\	Ven-
!	!	!LO:LB:g=original	!	!	!	!	!LO:PB:g=original	!	!	!	!
4C/	-tu-	4C/	-tu-	.	4e\	-tu-	4g\	-tu-	.	4cc\	-tu-
4C/	-ri	4C/	-ri	.	4e\	-ri	4g\	-ri	.	4cc\	-ri
4GG/	sae-	4GG/	ſae-	.	4d\	ſae-	4g\	ſae-	.	4b\	ſae-
8GG/	-cu-	8GG/	-cu-	.	8d\	-cu-	8g\	-cu-	.	8b\	-cu-
!LO:TX:t=P:problem:kreska pseudotaktowa	!	!LO:TX:t=P:problem:kreska pseudotaktowa	!	!	!LO:TX:t=P:problem:kreska pseudotaktowa	!	!LO:TX:t=P:problem:kreska pseudotaktowa	!	!	!LO:TX:t=P:problem:kreska pseudotaktowa	!
8GG/	-li	8GG/	-li	.	8d\	-li	8g\	-li	.	8b\	-li
=91-	=91-	=91-	=91-	=91-	=91-	=91-	=91-	=91-	=91-	=91-	=91-
4.D/	A-	4.D/	A-	.	4d\	A-	4.f\	A-	.	4.a\	A-
.	.	.	.	.	4.A/	.	.	.	.	.	.
16C/LL	.	16C/LL	.	.	.	.	16e\LL	.	.	8b\	.
16BB/JJ	.	16BB/JJ	.	.	.	.	16d\JJ	.	.	.	.
4.AA/	.	4.AA/	.	.	.	.	4.c\	.	.	4.cc\	.
.	.	.	.	.	16G/LL	.	.	.	.	.	.
.	.	.	.	.	16F/JJ	.	.	.	.	.	.
!	!	!	!	!	!LO:TX:t=P:problem:kreska pseudotaktowa:między nutą a kropką	!	!	!	!	!	!
.	.	.	.	.	4.E/	.	.	.	.	.	.
!LO:TX:t=P:problem:kreska pseudotaktowa	!	!LO:TX:t=P:problem:kreska pseudotaktowa	!	!	!	!	!LO:TX:t=P:problem:kreska pseudotaktowa	!	!	!	!
8BB/	.	8BB/	.	.	.	.	8d\	.	.	16b\LL	.
!	!	!	!	!	!	!	!	!	!	!LO:TX:t=P:problem:kreska pseudotaktowa	!
.	.	.	.	.	.	.	.	.	.	16a\JJ	.
1C	.	1C	.	.	.	.	1e	.	.	0gny	-men
.	.	.	.	.	8F/	.	.	.	.	.	.
.	.	.	.	.	2G/	.	.	.	.	.	.
.	.	.	.	.	2c\	.	.	.	.	.	.
=92-	=92-	=92-	=92-	=92-	=92-	=92-	=92-	=92-	=92-	=92-	=92-
1GG	.	1GG	.	.	.	.	1d	.	.	.	.
.	.	.	.	.	8B\L	.	.	.	.	.	.
.	.	.	.	.	8A\J	.	.	.	.	.	.
!	!	!	!	!	!LO:TX:t=P:problem:kreska pseudotaktowa	!	!	!	!	!	!
.	.	.	.	.	2B\	.	.	.	.	.	.
1Cl;	-men	1Cl;;	-men	.	1cl;;	-men	1el;;	-men	.	1gl;;	.
==	==	==	==	==	==	==	==	==	==	==	==
*-	*-	*-	*-	*-	*-	*-	*-	*-	*-	*-	*-
!!!system-decoration: [(s1,s2,s3,s4)]s5
!!!RDF**kern: > = above
!!!RDF**kern: < = below
!!!RDF**kern: l = terminal long
!!!ENC: Andrzej Kubiczek
!!!END: 2021-07-27
!!!ENC: Katarzyna Serwa
!!!END: 2021-07-06
